!!!!SEGMENT: pl-stab--5a--001-008_dankowski-adalbert--vespere-ex-c-de-confessoribus-magnificat.krn
!!!cenid: 18xx:3506
!!!COM: Dankowski, Adalbert
!!!COM-rismID: pe30000793
!!!CDT: ~1760-~1836
!!!CNT: Polish
!!!OPR: Vespere ex C de Confessoribus
!!!OTL: Magnificat
!!!OMV: 008
!!!PDT:
!!!AGN: Sacred; Vespers
!!!SMS-siglum: PL-STAb
!!!SMS-shelfmark: 5a
!!!SMS-shelfwork: 001-008 M
!!!SMS-variant:
!!!SMS-altvar:
!!!NIFC-rismSourceID: 301050557
!!!NIFC-rismChildID: 301050557
!!!NIFC-islandoraID: pl-stab:1317
!!!URL-pdf-islandora: https://repozytorium.nifc.pl/islandora/object/pl-stab%3A1317/datastream/PDF/view
!!!URL-scan: https://polish.musicsources.pl/pl/lokalizacje/galeria/rekopisy/4531 @EN{Scan on Polish Music Sources Website} @PL{Skany w portalu Dziedzictwo Muzyki Polskiej w otwartym dostępie}
!!!IIIF:
!!!ONB-nifc: UWAGA: części Nieszporów: 1. Domine ad adjuvandum, 2. Dixit Dominus, 3. Confitebor, 4. Beatus vir, 5. Laudate pueri, 6. Laudate Dominum, 7. In Exitu, 8. Magnificat, 9. Quia fecit, 10. Fecit potentiam, 11. Suscepit Israel, 12. Gloria patri
!!!OMD:
!!!OMD-mod: Allegro
!!!AIN: 1 alto 1 bass 2 cor 1 organ 1 soprn 1 tenor 2 violn
!!!key: C
**kern	**fba	**dynam	**kern	**dynam	**kern	**dynam	**kern	**text	**kern	**text	**kern	**text	**kern	**text	**kern	**dynam	**kern	**dynam
*	*	*	*group3	*	*group3	*	*group2	*	*group2	*	*group2	*	*group2	*	*group1	*	*group1	*
*part9	*part9	*part9	*part8	*part8	*part7	*part7	*part6	*part6	*part5	*part5	*part4	*part4	*part3	*part3	*part2	*part2	*part1	*part1
*staff9	*staff9	*	*staff8	*	*staff7	*	*staff6	*staff6	*staff5	*staff5	*staff4	*staff4	*staff3	*staff3	*staff2	*	*staff1	*
*I"Organo	*	*	*I"Violino Secondo	*	*I"Violino Primo	*	*I"Baſso	*	*I"Tenore.	*	*I"Alto.	*	*I"Canto	*	*I"Cornu Secondo Ex C.	*	*I"Cornu Primo Ex C.	*
*	*	*	*mI"Violino II	*	*mI"Violino I	*	*mI"Basso	*	*mI"Tenore	*	*mI"Alto	*	*mI"Soprano	*	*mI"Corno II in C	*	*mI"Corno I in C	*
*I'org	*	*	*I'vl 2	*	*I'vl 1	*	*I'B	*	*I'T	*	*I'A	*	*I'S	*	*I'cor 2 in C	*	*I'cor 1 in C	*
*Iorgan	*	*	*Ivioln	*	*Ivioln	*	*Ibass	*	*Itenor	*	*Ialto	*	*Isoprn	*	*Icor	*	*Icor	*
*ICklav	*	*	*ICstr	*	*ICstr	*	*ICvox	*	*ICvox	*	*ICvox	*	*ICvox	*	*ICbras	*	*ICbras	*
*IGcont	*	*	*	*	*	*	*IGcoro	*	*IGcoro	*	*IGcoro	*	*IGcoro	*	*	*	*	*
*clefF4	*	*	*clefG2	*	*clefG2	*	*clefF4	*	*clefC4	*	*clefC3	*	*clefC1	*	*clefG2	*	*clefG2	*
*	*	*	*	*	*	*	*	*	*mclefGv2	*	*mclefG2	*	*mclefG2	*	*	*	*	*
*k[]	*	*	*k[]	*	*k[]	*	*k[]	*	*k[]	*	*k[]	*	*k[]	*	*k[]	*	*k[]	*
*C:	*	*	*C:	*	*C:	*	*C:	*	*C:	*	*C:	*	*C:	*	*C:	*	*C:	*
*M3/4	*	*	*M3/4	*	*M3/4	*	*M3/4	*	*M3/4	*	*M3/4	*	*M3/4	*	*M3/4	*	*M3/4	*
=1	=1	=1	=1	=1	=1	=1	=1	=1	=1	=1	=1	=1	=1	=1	=1	=1	=1	=1
!	!	!LO:MO:mod=!LO&colon;DY&colon;ed=brack	!	!	!	!LO:MO:mod=!LO&colon;DY&colon;ed=brack	!	!	!	!	!	!	!	!	!	!	!	!
!LO:TX:a:t=tutti.:mod=	!	!null	!	!	!	!null	!	!	!	!	!	!	!	!	!	!	!LO:TX:a:t=Ex C.:mod=	!
!LO:TX:a:t=Allegro:mod=	!	!LO:MO:null:mod=f	!LO:TX:a:t=allegro:mod=	!LO:DY:a:rj	!LO:TX:a:t=allegro:mod=	!LO:MO:null:mod=f	!LO:TX:a:t=allegro:mod=	!	!LO:TX:b:t=allegro.:mod=	!	!LO:TX:a:t=Allegro.:mod=	!	!LO:TX:a:t=Allegro.:mod=	!	!LO:TX:a:t=Allegro:mod=	!LO:DY:a:rj	!LO:TX:a:t=allegro:mod=	!LO:DY:a:rj
8C/L	3	.	8c/L	f	8c/L	.	4c\	Ma-	4c\	Ma-	4g\	Ma-	4ee\	Ma-	4c/	f	4cc\	f
8BB/	.	.	8B/	.	8B/	.	.	.	.	.	.	.	.	.	.	.	.	.
8C/	_	.	8c/	.	8c/	.	4c\	-gni-	4c\	-gni-	4g\	-gni-	4ee\	-gni-	4c/	.	4cc\	.
8BB/	.	.	8B/	.	8B/	.	.	.	.	.	.	.	.	.	.	.	.	.
8C/	x	.	8c/	.	8c/	.	4c\	-fi-	4c\	-fi-	4g\	-fi-	4ee\	-fi-	4c/	.	4cc\	.
8BB/J	.	.	8B/J	.	8B/J	.	.	.	.	.	.	.	.	.	.	.	.	.
=2	=2	=2	=2	=2	=2	=2	=2	=2	=2	=2	=2	=2	=2	=2	=2	=2	=2	=2
!LO:TX:a:t=P:problem=mixed beam	!	!	!LO:TX:a:t=P:problem=mixed beam	!	!LO:TX:a:t=P:problem=mixed beam	!	!	!	!	!	!	!	!	!	!	!	!	!
8C/L	.	.	8c/L	.	8c/L	.	4c\	-cat	4c\	-cat	4g\	-cat	4ee\	-cat	4c/	.	4cc\	.
8c\	.	.	8cc\	.	8cc\	.	.	.	.	.	.	.	.	.	.	.	.	.
8B\	.	.	8b/	.	8b\	.	4r	.	4r	.	4r	.	4r	.	4r	.	4r	.
8c\	.	.	8cc\J	.	8cc\J	.	.	.	.	.	.	.	.	.	.	.	.	.
8G\	.	.	8g/L	.	8g/L	.	4r	.	4r	.	4r	.	4r	.	4r	.	4r	.
8E\J	.	.	8e/J	.	8e/J	.	.	.	.	.	.	.	.	.	.	.	.	.
=3	=3	=3	=3	=3	=3	=3	=3	=3	=3	=3	=3	=3	=3	=3	=3	=3	=3	=3
!LO:MO:mod=*tremolo	!	!	!	!	!LO:MO:mod=*tremolo	!	!	!	!	!	!	!	!	!	!	!	!	!
*null	*	*	*tremolo	*	*null	*	*	*ij	*	*ij	*	*ij	*	*ij	*	*	*	*
!	!	!	!	!	!	!	!	!LO:MO:mod=ma-	!	!LO:MO:mod=ma-	!	!LO:MO:mod=ma-	!	!LO:MO:mod=ma-	!	!	!	!
8C/L	6 4	.	8c/L	.	8c/L	.	4c\	Ma-	4c\	Ma-	4a\	Ma-	4ff\	Ma-	4c/	.	4cc\	.
8BB/	.	.	8B/	.	8B/	.	.	.	.	.	.	.	.	.	.	.	.	.
8C/	.	.	8c/	.	8c/	.	4c\	-gni-	4c\	-gni-	4a\	-gni-	4ff\	-gni-	4c/	.	4cc\	.
8BB/	_ _	.	8B/	.	8B/	.	.	.	.	.	.	.	.	.	.	.	.	.
8C/	.	.	8c/	.	8c/	.	4c\	-fi-	4c\	-fi-	4a\	-fi-	4ff\	-fi-	4c/	.	4cc\	.
8BB/J	.	.	8B/J	.	8B/J	.	.	.	.	.	.	.	.	.	.	.	.	.
!LO:MO:mod=*Xtremolo	!	!	!	!	!LO:MO:mod=*Xtremolo	!	!	!	!	!	!	!	!	!	!	!	!	!
*null	*	*	*Xtremolo	*	*null	*	*	*	*	*	*	*	*	*	*	*	*	*
=4	=4	=4	=4	=4	=4	=4	=4	=4	=4	=4	=4	=4	=4	=4	=4	=4	=4	=4
!LO:TX:a:t=P:problem=mixed beam	!	!	!LO:TX:a:t=P:problem=mixed beam	!	!LO:TX:a:t=P:problem=mixed beam	!	!	!	!	!	!	!	!	!	!	!	!	!
8C/L	x	.	8c/L	.	8c/L	.	4c\	-cat	4c\	-cat	4a\	-cat	4ff\	-cat	4c/	.	4cc\	.
*	*	*	*	*	*	*	*	*Xij	*	*	*	*	*	*	*	*	*	*
8c\	.	.	8cc\	.	8cc\	.	.	.	.	.	.	.	.	.	.	.	.	.
8B\	.	.	8b\	.	8b\	.	4r	.	4r	.	4r	.	4r	.	4r	.	4r	.
8c\	.	.	8cc\J	.	8cc\	.	.	.	.	.	.	.	.	.	.	.	.	.
8A\	.	.	8a/L	.	8a\	.	4r	.	4r	.	4r	.	4r	.	4r	.	4r	.
8F\J	.	.	8f/J	.	8f\J	.	.	.	.	.	.	.	.	.	.	.	.	.
!	!	!	!	!	!LO:LB:g=original	!	!LO:LB:g=original	!	!	!	!	!	!	!	!	!	!	!
=5	=5	=5	=5	=5	=5	=5	=5	=5	=5	=5	=5	=5	=5	=5	=5	=5	=5	=5
!LO:MO:mod=*tremolo	!	!	!	!	!LO:MO:mod=*tremolo	!	!	!	!	!	!	!	!	!	!	!	!	!
*null	*	*	*tremolo	*	*null	*	*	*	*	*	*	*	*	*	*	*	*	*
!	!	!	!	!	!	!	!	!	!	!LO:MO:mod=ma-	!	!LO:MO:mod=ma-	!	!LO:MO:mod=ma-	!	!	!	!
8C/L	5 3	.	8c/L	.	8c/L	.	4c\	ma-	4c\	Ma-	4g\	Ma-	4ee\	Ma-	4c/	.	4cc\	.
8BB/	.	.	8B/	.	8B/	.	.	.	.	.	.	.	.	.	.	.	.	.
8C/	_ _	.	8c/	.	8c/	.	4c\	-gni-	4c\	-gni-	4g\	-gni-	4ee\	-gni-	4c/	.	4cc\	.
8BB/	.	.	8B/	.	8B/	.	.	.	.	.	.	.	.	.	.	.	.	.
8C/	.	.	8c/	.	8c/	.	4c\	-fi-	4c\	-fi-	4g\	-fi-	4ee\	-fi-	4c/	.	4cc\	.
8BB/J	.	.	8B/J	.	8B/J	.	.	.	.	.	.	.	.	.	.	.	.	.
!LO:MO:mod=*Xtremolo	!	!	!	!	!LO:MO:mod=*Xtremolo	!	!	!	!	!	!	!	!	!	!	!	!	!
*null	*	*	*Xtremolo	*	*null	*	*	*	*	*	*	*	*	*	*	*	*	*
!	!	!	!	!	!	!	!	!	!	!	!LO:LB:g=original	!	!	!	!	!	!	!
=6	=6	=6	=6	=6	=6	=6	=6	=6	=6	=6	=6	=6	=6	=6	=6	=6	=6	=6
!LO:TX:a:t=P:problem=mixed beam	!	!	!LO:TX:a:t=P:problem=mixed beam	!	!LO:TX:a:t=P:problem=mixed beam	!	!	!	!	!	!	!	!	!	!	!	!	!
8C/L	x	.	8c/L	.	8c/L	.	4c\	-cat	4c\	-cat	4g\	-cat	4ee\	-cat	4c/	.	4cc\	.
*	*	*	*	*	*	*	*	*	*	*Xij	*	*Xij	*	*Xij	*	*	*	*
8c\	.	.	8cc\	.	8cc\	.	.	.	.	.	.	.	.	.	.	.	.	.
8B\	.	.	8b\	.	8b\	.	4r	.	4r	.	4r	.	4r	.	4r	.	4r	.
8c\	.	.	8cc\J	.	8cc\J	.	.	.	.	.	.	.	.	.	.	.	.	.
8G\	.	.	8g/L	.	8g/L	.	4r	.	4r	.	4r	.	4r	.	4r	.	4r	.
8E\J	.	.	8e/J	.	8e/J	.	.	.	.	.	.	.	.	.	.	.	.	.
!	!	!	!LO:LB:g=original	!	!	!	!	!	!LO:LB:g=original	!	!	!	!LO:LB:g=original	!	!	!	!	!
=7	=7	=7	=7	=7	=7	=7	=7	=7	=7	=7	=7	=7	=7	=7	=7	=7	=7	=7
*	*	*	*^	*	*	*	*	*	*	*	*	*	*	*	*	*	*	*
!	!	!	!LO:SIC:s=4c	!	!	!	!	!	!	!	!	!	!	!	!	!	!	!	!
8C/L	.	.	4d/	4ryyyy	.	4c/	.	4.c\	a-	4.c\	a-	4.g\	a-	4.ee\	a-	4cc\	.	4ee\	.
8BB/	.	.	.	.	.	.	.	.	.	.	.	.	.	.	.	.	.	.	.
8C/	.	.	4ee/	4cc\	.	4ccc\ 4ee\ 4g\	.	.	.	.	.	.	.	.	.	4cc\	.	4ee\	.
8GG/	.	.	.	.	.	.	.	8c\	-ni-	8c\	-ni-	8g\	-ni-	8ee\	-ni-	.	.	.	.
8C/	.	.	4ee/	4cc\	.	4ccc\ 4ee\ 4g\	.	4c\	-ma	4c\	-ma	4g\	-ma	4ee\	-ma	4cc\	.	4ee\	.
8E/J	.	.	.	.	.	.	.	.	.	.	.	.	.	.	.	.	.	.	.
!LO:LB:g=original	!	!	!	!	!	!	!	!	!	!	!	!	!	!	!	!LO:LB:g=original	!	!	!
=8	=8	=8	=8	=8	=8	=8	=8	=8	=8	=8	=8	=8	=8	=8	=8	=8	=8	=8	=8
!	!	!	!	!	!	!	!	!LO:MO:mod=*null:null	!	!LO:MO:mod=*null:null	!	!LO:MO:mod=*null:null	!	!LO:MO:mod=*null:null	!	!	!	!	!
*	*	*	*	*	*	*	*	*2\right	*	*2\right	*	*2\right	*	*2\right	*	*	*	*	*
!LO:TX:a:t=P:problem=mixed beam	!	!	!	!	!	!	!	!	!	!	!	!	!	!	!	!	!	!	!
8G\L	3	.	4ff/	4dd\	.	4bb\ 4dd\ 4g\	.	2G\	me-	2B\	me-	2g\	me-	2dd\	me-	4dd\	.	4ff\	.
8GG/	_	.	.	.	.	.	.	.	.	.	.	.	.	.	.	.	.	.	.
8BB/	.	.	4ff/	4dd\	.	4bb\ 4dd\ 4g\	.	.	.	.	.	.	.	.	.	4dd\	.	4ff\	.
8GG/	.	.	.	.	.	.	.	.	.	.	.	.	.	.	.	.	.	.	.
8C/	x	.	4ee/	4cc\	.	4ccc\ 4ee\ 4g\	.	4c\	-a	4c\	-a	4g\	-a	4ee\	-a	4cc\	.	4ee\	.
8E/J	.	.	.	.	.	.	.	.	.	.	.	.	.	.	.	.	.	.	.
!	!	!	!	!	!	!	!	!	!	!	!	!	!	!	!	!	!	!LO:LB:g=original	!
=9	=9	=9	=9	=9	=9	=9	=9	=9	=9	=9	=9	=9	=9	=9	=9	=9	=9	=9	=9
!LO:TX:a:t=P:problem=mixed beam	!	!	!	!	!	!	!	!	!	!	!	!	!	!	!	!	!	!	!
*	*	*	*	*	*	*	*	*	*ij	*	*ij	*	*ij	*	*ij	*	*	*	*
8G\L	3	.	4ff/	4dd\	.	4bb\ 4dd\ 4g\	.	2G\	me-	2B\	me-	2g\	me-	2dd\	me-	4dd\	.	4ff\	.
8GG/	_	.	.	.	.	.	.	.	.	.	.	.	.	.	.	.	.	.	.
8BB/	.	.	4ff/	4dd\	.	4bb\ 4dd\ 4g\	.	.	.	.	.	.	.	.	.	4dd\	.	4ff\	.
8GG/	x	.	.	.	.	.	.	.	.	.	.	.	.	.	.	.	.	.	.
8C/	.	.	4ee/	4cc\	.	4ccc\ 4ee\ 4g\	.	4c\	-a	4c\	-a	4g\	-a	4ee\	-a	4cc\	.	4ee\	.
*	*	*	*	*	*	*	*	*	*Xij	*	*Xij	*	*Xij	*	*Xij	*	*	*	*
8E/J	.	.	.	.	.	.	.	.	.	.	.	.	.	.	.	.	.	.	.
*	*	*	*v	*v	*	*	*	*	*	*	*	*	*	*	*	*	*	*	*
=10	=10	=10	=10	=10	=10	=10	=10	=10	=10	=10	=10	=10	=10	=10	=10	=10	=10	=10
4G\	.	.	4ee\ 4g\	.	4ccc\ 4dd\ 4g\	.	8G\	Do-	8c\	Do-	8g\	Do-	8ee\	Do-	4cc\	.	4ee\	.
.	.	.	.	.	.	.	8G\	-mi-	8c\	-mi-	8g\	-mi-	8ee\	-mi-	.	.	.	.
4GG/	.	.	4dd\ 4g\	.	4bb\ 4dd\ 4g\	.	4G\	-num	4B\	-num	4g\	-num	4dd\	-num	4g/	.	4dd\	.
4r	.	.	4r	.	4r	.	4r	.	4r	.	4r	.	4r	.	4r	.	4r	.
!	!	!	!	!	!	!	!LO:LB:g=original	!	!	!	!	!	!	!	!	!	!	!
=11	=11	=11	=11	=11	=11	=11	=11	=11	=11	=11	=11	=11	=11	=11	=11	=11	=11	=11
!	!	!	!	!	!	!	!	!	!	!	!	!	!LO:MO:mod=!LO&colon;TX&colon;a&colon;i&colon;t=Solo	!	!	!	!	!
!LO:TX:a:t=S&colon;:mod=	!	!	!	!	!	!	!	!	!	!	!LO:TX:a:t=8:mod=	!	!LO:TX:a:rj:t=Solo	!LO:MO:mod=et	!	!	!	!
4GG/	.	.	8B/L	.	8d/L	.	0.r	.	0.r	.	0.r	.	4gg\	Et	0.r	.	0.r	.
.	.	.	8A/	.	8c/	.	.	.	.	.	.	.	.	.	.	.	.	.
4r	.	.	8B/	.	8d/	.	.	.	.	.	.	.	4gg\	ex-	.	.	.	.
.	.	.	8c/	.	8e/	.	.	.	.	.	.	.	.	.	.	.	.	.
!	!	!	!	!	!	!	!	!	!	!	!	!	!	!LO:MO:mod=-sul-	!	!	!	!
4r	.	.	8d/	.	8f/	.	.	.	.	.	.	.	4gg\	-ul-	.	.	.	.
.	.	.	8B/J	.	8d/J	.	.	.	.	.	.	.	.	.	.	.	.	.
=12	=12	=12	=12	=12	=12	=12	=12	=12	=12	=12	=12	=12	=12	=12	=12	=12	=12	=12
4C/	.	.	8c/L	.	8e/L	.	.	.	.	.	.	.	8gg\L	-ta-	.	.	.	.
.	.	.	8e/	.	8g/	.	.	.	.	.	.	.	8ee\J	.	.	.	.	.
4r	.	.	8f/	.	8a/	.	.	.	.	.	.	.	4cc\	-vit	.	.	.	.
.	.	.	8e/	.	8g/	.	.	.	.	.	.	.	.	.	.	.	.	.
4r	.	.	8d/	.	8f/	.	.	.	.	.	.	.	4r	.	.	.	.	.
.	.	.	8c/J	.	8e/J	.	.	.	.	.	.	.	.	.	.	.	.	.
!	!	!	!	!	!LO:LB:g=original	!	!	!	!	!	!	!	!LO:LB:g=original	!	!	!	!	!
=13	=13	=13	=13	=13	=13	=13	=13	=13	=13	=13	=13	=13	=13	=13	=13	=13	=13	=13
!	!	!	!	!	!	!	!	!	!	!	!	!	!	!LO:MO:mod=spi-	!	!	!	!
4GG/	.	.	8B/L	.	8d/L	.	.	.	.	.	.	.	4gg\	Spi-	.	.	.	.
.	.	.	8A/	.	8c/	.	.	.	.	.	.	.	.	.	.	.	.	.
4r	.	.	8B/	.	8d/	.	.	.	.	.	.	.	4gg\	-ri-	.	.	.	.
.	.	.	8c/	.	8e/	.	.	.	.	.	.	.	.	.	.	.	.	.
4r	.	.	8d/	.	8f/	.	.	.	.	.	.	.	4gg\	-tus	.	.	.	.
.	.	.	8B/J	.	8d/J	.	.	.	.	.	.	.	.	.	.	.	.	.
=14	=14	=14	=14	=14	=14	=14	=14	=14	=14	=14	=14	=14	=14	=14	=14	=14	=14	=14
4C/	.	.	8c/L	.	8e/L	.	.	.	.	.	.	.	8gg\L	me-	.	.	.	.
.	.	.	8e/	.	8g/	.	.	.	.	.	.	.	8ee\J	.	.	.	.	.
4r	.	.	8f/	.	8a/	.	.	.	.	.	.	.	4cc\	-us	.	.	.	.
.	.	.	8e/	.	8g/	.	.	.	.	.	.	.	.	.	.	.	.	.
4r	.	.	8d/	.	8f/	.	.	.	.	.	.	.	4r	.	.	.	.	.
.	.	.	8c/J	.	8e/J	.	.	.	.	.	.	.	.	.	.	.	.	.
=15	=15	=15	=15	=15	=15	=15	=15	=15	=15	=15	=15	=15	=15	=15	=15	=15	=15	=15
4E\	6	.	8B/L	.	8d/L	.	0.r	.	0.r	.	0.r	.	4cc\	in	0.r	.	0.r	.
.	.	.	8c/	.	8e/	.	.	.	.	.	.	.	.	.	.	.	.	.
4r	.	.	8d/	.	8f/	.	.	.	.	.	.	.	4cc\	De-	.	.	.	.
.	.	.	8e/	.	8g/	.	.	.	.	.	.	.	.	.	.	.	.	.
4r	.	.	8f/	.	8a/	.	.	.	.	.	.	.	4cc\	-o	.	.	.	.
.	.	.	8e/J	.	8g/J	.	.	.	.	.	.	.	.	.	.	.	.	.
!	!	!	!LO:LB:g=original	!	!	!	!	!	!	!	!	!	!	!	!	!	!	!
=16	=16	=16	=16	=16	=16	=16	=16	=16	=16	=16	=16	=16	=16	=16	=16	=16	=16	=16
!	!	!	!	!	!	!	!	!	!	!	!	!	!	!LO:MO:mod=sa-	!	!	!	!
4r	.	.	8d/L	.	8f/L	.	.	.	.	.	.	.	2dd\	Sa-	.	.	.	.
.	.	.	8e/	.	8g/	.	.	.	.	.	.	.	.	.	.	.	.	.
4F\	6	.	8f/	.	8a/	.	.	.	.	.	.	.	.	.	.	.	.	.
.	.	.	8d/	.	8f/	.	.	.	.	.	.	.	.	.	.	.	.	.
4G\	3	.	8B/	.	8d/	.	.	.	.	.	.	.	8ee\L	-lu-	.	.	.	.
.	.	.	8d/J	.	8f/J	.	.	.	.	.	.	.	8dd\J	.	.	.	.	.
=17	=17	=17	=17	=17	=17	=17	=17	=17	=17	=17	=17	=17	=17	=17	=17	=17	=17	=17
4A\	3	.	8c/L	.	8e/L	.	.	.	.	.	.	.	2cc\	-ta-	.	.	.	.
.	.	.	8e/	.	8g/	.	.	.	.	.	.	.	.	.	.	.	.	.
4G\	_	.	8d/	.	8f/	.	.	.	.	.	.	.	.	.	.	.	.	.
.	.	.	8c/	.	8e/	.	.	.	.	.	.	.	.	.	.	.	.	.
4F#X\	.	.	8B/	.	8d/	.	.	.	.	.	.	.	4cc\	-ri	.	.	.	.
.	x	.	8c/J	.	8e/J	.	.	.	.	.	.	.	.	.	.	.	.	.
=18	=18	=18	=18	=18	=18	=18	=18	=18	=18	=18	=18	=18	=18	=18	=18	=18	=18	=18
!LO:MO:mod=*null:null	!	!	!	!	!	!	!	!	!	!	!	!	!	!	!	!	!	!
*2\right	*	*	*	*	*	*	*	*	*	*	*	*	*	*	*	*	*	*
2.G\	6 4	.	8e/L	.	8g/L	.	.	.	.	.	.	.	4cc\	me-	.	.	.	.
.	.	.	8c/	.	8e/	.	.	.	.	.	.	.	.	.	.	.	.	.
.	5 3	.	8e/	.	8g/	.	.	.	.	.	.	.	8ee\L	.	.	.	.	.
.	.	.	8d/	.	8f/	.	.	.	.	.	.	.	8dd\	.	.	.	.	.
.	.	.	8c/	.	8e/	.	.	.	.	.	.	.	8cc\	.	.	.	.	.
.	.	.	8B/J	.	8d/J	.	.	.	.	.	.	.	8b\J	.	.	.	.	.
!LO:LB:g=original	!	!	!	!	!	!	!	!	!	!	!LO:LB:g=original	!	!LO:LB:g=original	!	!	!	!	!
=19	=19	=19	=19	=19	=19	=19	=19	=19	=19	=19	=19	=19	=19	=19	=19	=19	=19	=19
!!LO:TX:a:t= :mod=Tutti
!	!	!	!	!LO:MO:mod=!LO&colon;DY&colon;ed=brack	!	!LO:MO:mod=!LO&colon;DY&colon;ed=brack	!	!	!	!	!	!	!	!	!	!	!	!
!	!	!	!	!null	!	!null	!	!	!	!	!	!	!	!	!	!	!	!
!LO:TX:a:t=tutti:mod=	!	!LO:DY:a	!	!LO:MO:null:mod=f	!	!LO:MO:null:mod=f	!	!	!	!	!	!	!	!	!	!	!	!
8C/L	.	f	8c/L	.	4cc/ 4e/	.	2.C/	in	2.e\	in	2.g\	in	2cc\	-o	4cc\	.	4ee\	.
8C/	.	.	8e/ 8G/	.	.	.	.	.	.	.	.	.	.	.	.	.	.	.
8C/	.	.	8e/ 8G/	.	4r	.	.	.	.	.	.	.	.	.	4cc\	.	4ee\	.
8C/	.	.	8e/ 8G/	.	.	.	.	.	.	.	.	.	.	.	.	.	.	.
8C/	.	.	8e/ 8G/	.	16ee\LL	.	.	.	.	.	.	.	4ee\	in	4cc\	.	4ee\	.
.	.	.	.	.	16dd\	.	.	.	.	.	.	.	.	.	.	.	.	.
8C/J	.	.	8e/J 8G/	.	16ee\	.	.	.	.	.	.	.	.	.	.	.	.	.
.	.	.	.	.	16ff\JJ	.	.	.	.	.	.	.	.	.	.	.	.	.
!	!	!	!	!	!LO:LB:g=original	!	!	!	!	!	!	!	!	!	!	!	!	!
=20	=20	=20	=20	=20	=20	=20	=20	=20	=20	=20	=20	=20	=20	=20	=20	=20	=20	=20
!	!	!	!	!	!	!	!	!	!	!	!	!	!	!	!LO:MO:mod=*null:null	!	!LO:MO:mod=*null:null	!
*tremolo	*	*	*tremolo	*	*	*	*	*	*	*	*	*	*	*	*2\right	*	*2\right	*
8C/L	.	.	8e/L 8G/	.	4gg\	.	2C/	De-	2c\	De-	2g\	De-	2ee\	De-	2.cc\	.	2.ee\	.
8C/	.	.	8e/ 8G/	.	.	.	.	.	.	.	.	.	.	.	.	.	.	.
8C/	.	.	8e/ 8G/	.	4ee\	.	.	.	.	.	.	.	.	.	.	.	.	.
8C/	.	.	8e/ 8G/	.	.	.	.	.	.	.	.	.	.	.	.	.	.	.
!	!	!	!	!	!	!	!	!	!LO:SIC:s=4c	!	!	!	!	!	!	!	!	!
8C/	.	.	8e/ 8G/	.	4ccc\	.	4C/	-o	4B\	-o	4g\	-o	4ee\	-o	.	.	.	.
8C/J	.	.	8e/J 8G/	.	.	.	.	.	.	.	.	.	.	.	.	.	.	.
!	!	!	!	!	!	!	!	!	!LO:LB:g=original	!	!	!	!	!	!	!	!	!
=21	=21	=21	=21	=21	=21	=21	=21	=21	=21	=21	=21	=21	=21	=21	=21	=21	=21	=21
!	!	!	!	!	!	!	!	!LO:MO:mod=sa-	!	!LO:MO:mod=sa-	!	!LO:MO:mod=sa-	!	!LO:MO:mod=sa-	!	!	!	!
8F\L	6	.	8f/L 8A/	.	4aa\	.	2F\	Sa-	2d\	Sa-	2a\	Sa-	2ff\	Sa-	4dd\	.	4ff\	.
8F\	.	.	8f/ 8A/	.	.	.	.	.	.	.	.	.	.	.	.	.	.	.
8F\	.	.	8f/ 8A/	.	8ff\	.	.	.	.	.	.	.	.	.	4dd\	.	4ff\	.
8F\	.	.	8f/ 8A/	.	8r	.	.	.	.	.	.	.	.	.	.	.	.	.
.	.	.	.	.	8qqee/	.	.	.	.	.	.	.	.	.	.	.	.	.
8F\	.	.	8f/ 8A/	.	8dd\L	.	4F\	-lu-	4d\	-lu-	4a\	-lu-	4ff\	-lu-	4dd\	.	4ff\	.
8F\J	.	.	8f/J 8A/	.	16cc\L	.	.	.	.	.	.	.	.	.	.	.	.	.
.	.	.	.	.	16dd\JJ	.	.	.	.	.	.	.	.	.	.	.	.	.
=22	=22	=22	=22	=22	=22	=22	=22	=22	=22	=22	=22	=22	=22	=22	=22	=22	=22	=22
8G\L	3	.	8d/L 8G/	.	4b\	.	2.G\	-ta-	2.B\	-ta-	2.g\	-ta-	2.dd\	-ta-	2.g/	.	2.dd\	.
8G\	.	.	8d/ 8G/	.	.	.	.	.	.	.	.	.	.	.	.	.	.	.
8G\	.	.	8d/ 8G/	.	4gg\	.	.	.	.	.	.	.	.	.	.	.	.	.
8G\	.	.	8d/ 8G/	.	.	.	.	.	.	.	.	.	.	.	.	.	.	.
8G\	.	.	8d/ 8G/	.	4ff\	.	.	.	.	.	.	.	.	.	.	.	.	.
8G\J	.	.	8d/J 8G/	.	.	.	.	.	.	.	.	.	.	.	.	.	.	.
=23	=23	=23	=23	=23	=23	=23	=23	=23	=23	=23	=23	=23	=23	=23	=23	=23	=23	=23
8C/L	.	.	8e/L 8G/	.	4ee\	.	2C/	-ri	2c\	-ri	2g\	-ri	2ee\	-ri	4cc\	.	4ee\	.
8C/	.	.	8e/ 8G/	.	.	.	.	.	.	.	.	.	.	.	.	.	.	.
8C/	.	.	8e/ 8G/	.	8gg\	.	.	.	.	.	.	.	.	.	4cc\	.	4ee\	.
8C/	.	.	8e/ 8G/	.	8r	.	.	.	.	.	.	.	.	.	.	.	.	.
8C/	.	.	8e/ 8G/	.	16ee\LL	.	4C/	in	4c\	in	4g\	in	4ee\	in	4cc\	.	4ee\	.
.	.	.	.	.	16dd\	.	.	.	.	.	.	.	.	.	.	.	.	.
8C/J	.	.	8e/J 8G/	.	16ee\	.	.	.	.	.	.	.	.	.	.	.	.	.
.	.	.	.	.	16ff\JJ	.	.	.	.	.	.	.	.	.	.	.	.	.
=24	=24	=24	=24	=24	=24	=24	=24	=24	=24	=24	=24	=24	=24	=24	=24	=24	=24	=24
!LO:MO:mod=*null:null	!	!	!	!	!	!	!	!	!	!	!	!	!	!	!	!	!	!
*Xtremolo	*	*	*	*	*	*	*	*	*	*	*	*	*	*	*	*	*	*
8C/L	.	.	8e/L 8G/	.	4gg\	.	2C/	De-	2c\	De-	2g\	De-	2ee\	De-	2.cc\	.	2.ee\	.
8C/	.	.	8e/ 8G/	.	.	.	.	.	.	.	.	.	.	.	.	.	.	.
8C/	.	.	8e/ 8G/	.	4ee\	.	.	.	.	.	.	.	.	.	.	.	.	.
8C/	.	.	8e/ 8G/	.	.	.	.	.	.	.	.	.	.	.	.	.	.	.
8C/	.	.	8e/ 8G/	.	4ccc\	.	4C/	-o	4c\	-o	4g\	-o	4ee\	-o	.	.	.	.
8C/J	.	.	8e/J 8G/	.	.	.	.	.	.	.	.	.	.	.	.	.	.	.
!	!	!	!	!	!	!	!LO:LB:g=original	!	!	!	!	!	!	!	!	!	!	!
=25	=25	=25	=25	=25	=25	=25	=25	=25	=25	=25	=25	=25	=25	=25	=25	=25	=25	=25
!LO:MO:mod=*null:null	!	!	!	!	!	!	!	!	!	!	!	!	!	!	!	!	!	!
*tremolo	*	*	*	*	*	*	*	*	*	*	*	*	*	*	*	*	*	*
!	!	!	!	!	!	!	!	!LO:MO:mod=sa-	!	!LO:MO:mod=sa-	!	!LO:MO:mod=sa-	!	!LO:MO:mod=sa-	!	!	!	!
8F\L	6	.	8f/L 8A/	.	4aa\	.	2F\	Sa-	2d\	Sa-	2a\	Sa-	2ff\	Sa-	4dd\	.	4ff\	.
8F\	.	.	8f/ 8A/	.	.	.	.	.	.	.	.	.	.	.	.	.	.	.
8F\	.	.	8f/ 8A/	.	8ff\	.	.	.	.	.	.	.	.	.	4dd\	.	4ff\	.
8F\	.	.	8f/ 8A/	.	8r	.	.	.	.	.	.	.	.	.	.	.	.	.
.	.	.	.	.	8qqee/	.	.	.	.	.	.	.	.	.	.	.	.	.
8F\	.	.	8f/ 8A/	.	8dd\L	.	4F\	-lu-	4d\	-lu-	4a\	-lu-	4ff\	-lu-	4dd\	.	4ff\	.
8F\J	.	.	8f/J 8A/	.	16cc\L	.	.	.	.	.	.	.	.	.	.	.	.	.
.	.	.	.	.	16dd\JJ	.	.	.	.	.	.	.	.	.	.	.	.	.
!	!	!	!LO:PB:g=original	!	!	!	!	!	!	!	!LO:LB:g=original	!	!	!	!LO:LB:g=original	!	!LO:LB:g=original	!
=26	=26	=26	=26	=26	=26	=26	=26	=26	=26	=26	=26	=26	=26	=26	=26	=26	=26	=26
8G\L	3	.	8d/L 8G/	.	4b\	.	2.G\	-ta-	2.B\	-ta-	2.g\	-ta-	2.dd\	-ta-	2.g/	.	2.dd\	.
8G\	.	.	8d/ 8G/	.	.	.	.	.	.	.	.	.	.	.	.	.	.	.
8G\	.	.	8d/ 8G/	.	4gg\	.	.	.	.	.	.	.	.	.	.	.	.	.
8G\	.	.	8d/ 8G/	.	.	.	.	.	.	.	.	.	.	.	.	.	.	.
8G\	.	.	8d/ 8G/	.	4ff\	.	.	.	.	.	.	.	.	.	.	.	.	.
8G\J	.	.	8d/J 8G/	.	.	.	.	.	.	.	.	.	.	.	.	.	.	.
!	!	!	!	!	!LO:LB:g=original	!	!	!	!	!	!	!	!LO:LB:g=original	!	!	!	!	!
=27	=27	=27	=27	=27	=27	=27	=27	=27	=27	=27	=27	=27	=27	=27	=27	=27	=27	=27
8C/L	.	.	8e/L 8G/	.	4ee\	.	4C/	-ri	4c\	-ri	4g\	-ri	4ee\	-ri	4cc\	.	4ee\	.
8C/	.	.	8e/ 8G/	.	.	.	.	.	.	.	.	.	.	.	.	.	.	.
*	*	*	*	*	*	*	*	*	*	*ij	*	*ij	*	*	*	*	*	*
!	!	!	!	!	!	!	!	!LO:MO:mod=sa-	!	!LO:MO:mod=sa-	!	!LO:MO:mod=sa-	!	!LO:MO:mod=sa-	!	!	!	!
8C/	.	.	8e/ 8G/	.	8gg\	.	4C/	Sa-	4c\	Sa-	4g\	Sa-	4ee\	Sa-	4cc\	.	4ee\	.
8C/	.	.	8e/ 8G/	.	8r	.	.	.	.	.	.	.	.	.	.	.	.	.
8C/	.	.	8e/ 8G/	.	16aa\LL	.	4C/	-lu-	4c\	-lu-	4g\	-lu-	4ee\	-lu-	4cc\	.	4ee\	.
.	.	.	.	.	16gg\	.	.	.	.	.	.	.	.	.	.	.	.	.
8C/J	.	.	8e/J 8G/	.	16ff\	.	.	.	.	.	.	.	.	.	.	.	.	.
.	.	.	.	.	16gg\JJ	.	.	.	.	.	.	.	.	.	.	.	.	.
=28	=28	=28	=28	=28	=28	=28	=28	=28	=28	=28	=28	=28	=28	=28	=28	=28	=28	=28
8c\L	.	.	8e/L 8G/	.	4ee\	.	2c\	-ta-	2c\	-ta-	2g\	-ta-	2ee\	-ta-	4cc\	.	4ee\	.
8c\	.	.	8e/ 8G/	.	.	.	.	.	.	.	.	.	.	.	.	.	.	.
8c\	.	.	8e/ 8G/	.	8gg\	.	.	.	.	.	.	.	.	.	4cc\	.	4ee\	.
8c\	.	.	8e/ 8G/	.	8r	.	.	.	.	.	.	.	.	.	.	.	.	.
8c\	.	.	8e/ 8G/	.	16aa\LL	.	4c\	-ri	4c\	-ri	4g\	-ri	4ee\	-ri	4cc\	.	4ee\	.
*	*	*	*	*	*	*	*	*	*	*Xij	*	*Xij	*	*	*	*	*	*
.	.	.	.	.	16gg\	.	.	.	.	.	.	.	.	.	.	.	.	.
8c\J	.	.	8e/J 8G/	.	16ff\	.	.	.	.	.	.	.	.	.	.	.	.	.
.	.	.	.	.	16gg\JJ	.	.	.	.	.	.	.	.	.	.	.	.	.
!	!	!	!	!	!	!	!	!	!LO:LB:g=original	!	!	!	!	!	!	!	!	!
=29	=29	=29	=29	=29	=29	=29	=29	=29	=29	=29	=29	=29	=29	=29	=29	=29	=29	=29
!	!	!	!LO:MO:mod=*null:null	!	!	!	!	!	!	!	!	!	!	!	!	!	!	!
*	*	*	*2\right	*	*	*	*	*	*	*	*	*	*	*	*	*	*	*
8A\L	6\ 3	.	8cc\L	.	4ff#X\	.	2.A\	me-	2.d\	me-	2.cc\	me-	2.ff#X\	me-	4dd\	.	4dd\	.
8A\	.	.	8cc\	.	.	.	.	.	.	.	.	.	.	.	.	.	.	.
8A\	.	.	8cc\	.	8ee\L	.	.	.	.	.	.	.	.	.	4dd\	.	4dd\	.
8A\	.	.	8cc\	.	8dd\	.	.	.	.	.	.	.	.	.	.	.	.	.
8A\	.	.	8cc\	.	8ee\	.	.	.	.	.	.	.	.	.	4dd\	.	4dd\	.
8A\J	.	.	8cc\J	.	8ff#\J	.	.	.	.	.	.	.	.	.	.	.	.	.
!LO:MO:mod=*null:null	!	!	!	!	!	!	!	!	!	!	!	!	!	!	!	!	!	!
*Xtremolo	*	*	*Xtremolo	*	*	*	*	*	*	*	*	*	*	*	*	*	*	*
!LO:LB:g=original	!	!	!	!	!	!	!	!	!	!	!	!	!	!	!	!	!	!
=30	=30	=30	=30	=30	=30	=30	=30	=30	=30	=30	=30	=30	=30	=30	=30	=30	=30	=30
!	!	!	!	!	!LO:MO:mod=*null:null	!	!	!	!	!	!	!	!	!	!	!	!	!
*	*	*	*	*	*2\right	*	*	*	*	*	*	*	*	*	*	*	*	*
8G\L	3	.	2b\	.	2gg\	.	4G\	-o	4d\	-o	4b\	-o	4gg\	-o	4g/	.	4dd\	.
8G\	_	.	.	.	.	.	.	.	.	.	.	.	.	.	.	.	.	.
!	!	!	!	!	!	!	!	!LO:MO:mod=sa-	!	!LO:MO:mod=sa-	!	!LO:MO:mod=sa-	!	!LO:MO:mod=sa-	!	!	!	!
8G\	.	.	.	.	.	.	4G\	Sa-	4d\	Sa-	4b\	Sa-	4gg\	Sa-	8G/L	.	8g/L	.
8G\	x	.	.	.	.	.	.	.	.	.	.	.	.	.	8G/	.	8g/	.
8G\	7n	.	4dd\	.	4ffn\	.	4G\	-lu-	4B\	-lu-	4dd\	-lu-	4ffn\	-lu-	8G/	.	8g/	.
8G\J	5	.	.	.	.	.	.	.	.	.	.	.	.	.	8G/J	.	8g/J	.
!	!	!	!	!	!	!	!LO:LB:g=original	!	!	!	!	!	!	!	!	!	!	!
=31	=31	=31	=31	=31	=31	=31	=31	=31	=31	=31	=31	=31	=31	=31	=31	=31	=31	=31
8G\L	x 6 4	.	4cc\	.	4ee\	.	2.G\	-ta-	4e\	-ta-	4cc\	-ta-	4ee\	-ta-	4G/	.	4g/	.
8G\	x _ _	.	.	.	.	.	.	.	.	.	.	.	.	.	.	.	.	.
8G\	7 5 3	.	4b\	.	4ff\	.	.	.	4d\	.	4b\	.	4ff\	.	4G/	.	4g/	.
8G\	_ _ _	.	.	.	.	.	.	.	.	.	.	.	.	.	.	.	.	.
8G\	7# 4 2	.	4a\	.	4ff#X\	.	.	.	4c\	.	4a\	.	4ff#X\	.	4G/	.	4g/	.
8G\J	_ _ _	.	.	.	.	.	.	.	.	.	.	.	.	.	.	.	.	.
=32	=32	=32	=32	=32	=32	=32	=32	=32	=32	=32	=32	=32	=32	=32	=32	=32	=32	=32
8G\L	x 8 4	.	2b\	.	2gg\	.	4G\	-ri	4d\	-ri	4b\	-ri	4gg\	-ri	4G/	.	4g/	.
8G\	x _ _	.	.	.	.	.	.	.	.	.	.	.	.	.	.	.	.	.
8G\	.	.	.	.	.	.	2G\	me-	4d\	me-	4b\	me-	4gg\	me-	8G/L	.	8g/L	.
8G\	.	.	.	.	.	.	.	.	.	.	.	.	.	.	8G/	.	8g/	.
8G\	x 7n 5	.	4dd\	.	4ffn\	.	.	.	4B\	.	4dd\	.	4ffn\	.	8G/	.	8g/	.
8G\J	x _ _	.	.	.	.	.	.	.	.	.	.	.	.	.	8G/J	.	8g/J	.
!	!	!	!	!	!	!	!	!	!	!	!LO:LB:g=original	!	!	!	!	!	!LO:LB:g=original	!
=33	=33	=33	=33	=33	=33	=33	=33	=33	=33	=33	=33	=33	=33	=33	=33	=33	=33	=33
8G\L	x 6 4	.	4cc\	.	4ee\	.	2.G\	.	4e\	.	4cc\	.	4ee\	.	4G/	.	4g/	.
8G\	x _ _	.	.	.	.	.	.	.	.	.	.	.	.	.	.	.	.	.
8G\	7 5 4	.	4b\	.	4ff\	.	.	.	4d\	.	4b\	.	4ff\	.	4G/	.	4g/	.
8G\	_ _ _	.	.	.	.	.	.	.	.	.	.	.	.	.	.	.	.	.
8G\	7# 4 2	.	4a\	.	4ff#X\	.	.	.	4c\	.	4a\	.	4ff#X\	.	4G/	.	4g/	.
8G\J	_ _ _	.	.	.	.	.	.	.	.	.	.	.	.	.	.	.	.	.
!LO:MO:mod=*Xtremolo	!	!	!	!	!	!	!	!	!	!	!	!	!	!	!	!	!	!
*null	*	*	*	*	*	*	*	*	*	*	*	*	*	*	*	*	*	*
!	!	!	!	!	!LO:LB:g=original	!	!	!	!	!	!	!	!LO:LB:g=original	!	!LO:LB:g=original	!	!	!
=34	=34	=34	=34	=34	=34	=34	=34	=34	=34	=34	=34	=34	=34	=34	=34	=34	=34	=34
4G\	8 5 3	.	4b\	.	16gg\LL	.	4G\	-o	4d\	-o	4b\	-o	4gg\	-o	4G/	.	4g/	.
.	.	.	.	.	16ff#X\	.	.	.	.	.	.	.	.	.	.	.	.	.
.	.	.	.	.	16gg\	.	.	.	.	.	.	.	.	.	.	.	.	.
.	.	.	.	.	16aa\JJ	.	.	.	.	.	.	.	.	.	.	.	.	.
!	!	!LO:DY:t=pia:mod= 	!	!	!LO:TX:a:t=Solo:mod=	!	!	!	!	!	!	!	!	!	!	!	!	!
4r	.	p	4r	.	8gg\L	.	4r	.	4r	.	4r	.	4r	.	4r	.	4r	.
!	!	!	!	!	!LO:TX:a:i:t=:mod= Solo	!LO:MO:mod=!LO&colon;DY&colon;ed=brack	!	!	!	!	!	!	!	!	!	!	!	!
!	!	!	!	!	!	!null	!	!	!	!	!	!	!	!	!	!	!	!
!	!	!	!	!	!LO:SIC:s=8dd'	!LO:MO:null:mod=p	!	!	!	!	!	!	!	!	!	!	!	!
.	.	.	.	.	8dd\	.	.	.	.	.	.	.	.	.	.	.	.	.
!	!	!	!	!	!LO:SIC:s=8dd'	!	!	!	!	!	!	!	!	!	!	!	!	!
4r	.	.	4r	.	8dd\	.	4r	.	4r	.	4r	.	4r	.	4r	.	4r	.
!	!	!	!	!	!LO:SIC:s=8dd'J	!	!	!	!	!	!	!	!	!	!	!	!	!
.	.	.	.	.	8dd\J	.	.	.	.	.	.	.	.	.	.	.	.	.
=35	=35	=35	=35	=35	=35	=35	=35	=35	=35	=35	=35	=35	=35	=35	=35	=35	=35	=35
!	!	!	!	!LO:MO:mod=!LO&colon;DY&colon;ed=brack	!	!	!	!	!	!	!	!	!	!	!	!	!	!
!	!	!	!	!null	!	!	!	!	!	!	!	!	!	!	!	!	!	!
!LO:TX:a:rj:t=S.:mod=	!	!LO:MO:null:mod=p	!	!LO:MO:null:mod=p	!	!	!	!	!	!	!LO:TX:a:t=30:mod=	!	!LO:TX:a:t=8:mod=	!	!	!	!	!
4G\	5 3	.	4b\	.	8dd'\L	.	0.r	.	0.r	.	0.r	.	0.r	.	0.r	.	0.r	.
.	.	.	.	.	8dd'\	.	.	.	.	.	.	.	.	.	.	.	.	.
4F#X\	x 3	.	4a\	.	8dd'\	.	.	.	.	.	.	.	.	.	.	.	.	.
.	.	.	.	.	8dd'\	.	.	.	.	.	.	.	.	.	.	.	.	.
4G\	x 3	.	4b\	.	8dd'\	.	.	.	.	.	.	.	.	.	.	.	.	.
.	.	.	.	.	8dd'\J	.	.	.	.	.	.	.	.	.	.	.	.	.
=36	=36	=36	=36	=36	=36	=36	=36	=36	=36	=36	=36	=36	=36	=36	=36	=36	=36	=36
4A\	x 3	.	4cc\	.	8dd\L	.	.	.	.	.	.	.	.	.	.	.	.	.
.	.	.	.	.	16ff#X\L	.	.	.	.	.	.	.	.	.	.	.	.	.
.	.	.	.	.	16gg\JJ	.	.	.	.	.	.	.	.	.	.	.	.	.
4r	.	.	4r	.	8ff#'\L	.	.	.	.	.	.	.	.	.	.	.	.	.
.	.	.	.	.	8dd'\	.	.	.	.	.	.	.	.	.	.	.	.	.
4r	.	.	4r	.	8dd'\	.	.	.	.	.	.	.	.	.	.	.	.	.
.	.	.	.	.	8dd'\J	.	.	.	.	.	.	.	.	.	.	.	.	.
=37	=37	=37	=37	=37	=37	=37	=37	=37	=37	=37	=37	=37	=37	=37	=37	=37	=37	=37
4F#X\	6 3	.	4a/	.	8dd'\L	.	.	.	.	.	.	.	.	.	.	.	.	.
.	.	.	.	.	8dd'\	.	.	.	.	.	.	.	.	.	.	.	.	.
4E\	_ 3	.	4g/	.	8dd'\	.	.	.	.	.	.	.	.	.	.	.	.	.
.	.	.	.	.	8dd'\	.	.	.	.	.	.	.	.	.	.	.	.	.
4F#\	_ 3	.	4a/	.	8dd'\	.	.	.	.	.	.	.	.	.	.	.	.	.
.	.	.	.	.	8dd'\J	.	.	.	.	.	.	.	.	.	.	.	.	.
!	!	!	!LO:LB:g=original	!	!	!	!	!	!	!	!	!	!	!	!	!	!	!
=38	=38	=38	=38	=38	=38	=38	=38	=38	=38	=38	=38	=38	=38	=38	=38	=38	=38	=38
4G\	_ 3	.	4b\	.	8dd\L	.	.	.	.	.	.	.	.	.	.	.	.	.
.	.	.	.	.	16gg\L	.	.	.	.	.	.	.	.	.	.	.	.	.
.	x	.	.	.	16aa\JJ	.	.	.	.	.	.	.	.	.	.	.	.	.
!	!	!	!	!	!LO:SIC:s=8gg'L	!	!	!	!	!	!	!	!	!	!	!	!	!
4r	.	.	4r	.	8gg\L	.	.	.	.	.	.	.	.	.	.	.	.	.
!	!	!	!	!	!LO:SIC:s=8dd'	!	!	!	!	!	!	!	!	!	!	!	!	!
.	.	.	.	.	8dd\	.	.	.	.	.	.	.	.	.	.	.	.	.
!	!	!	!	!	!LO:SIC:s=8dd'	!	!	!	!	!	!	!	!	!	!	!	!	!
4r	.	.	4r	.	8dd\	.	.	.	.	.	.	.	.	.	.	.	.	.
!	!	!	!	!	!LO:SIC:s=8dd'J	!	!	!	!	!	!	!	!	!	!	!	!	!
.	.	.	.	.	8dd\J	.	.	.	.	.	.	.	.	.	.	.	.	.
!LO:LB:g=original	!	!	!	!	!	!	!	!	!	!	!	!	!	!	!	!	!	!
=39	=39	=39	=39	=39	=39	=39	=39	=39	=39	=39	=39	=39	=39	=39	=39	=39	=39	=39
!	!	!	!	!	!LO:SIC:s=8dd'L	!	!	!	!	!	!	!	!	!	!	!	!	!
4G\	5 3	.	4b\	.	8dd\L	.	0.r	.	0.r	.	0.r	.	0.r	.	0.r	.	0.r	.
!	!	!	!	!	!LO:SIC:s=8dd'	!	!	!	!	!	!	!	!	!	!	!	!	!
.	.	.	.	.	8dd\	.	.	.	.	.	.	.	.	.	.	.	.	.
!	!	!	!	!	!LO:SIC:s=8dd'	!	!	!	!	!	!	!	!	!	!	!	!	!
4F#X\	x 3	.	4a\	.	8dd\	.	.	.	.	.	.	.	.	.	.	.	.	.
!	!	!	!	!	!LO:SIC:s=8dd'	!	!	!	!	!	!	!	!	!	!	!	!	!
.	.	.	.	.	8dd\	.	.	.	.	.	.	.	.	.	.	.	.	.
!	!	!	!	!	!LO:SIC:s=8dd'	!	!	!	!	!	!	!	!	!	!	!	!	!
4G\	x 3	.	4b\	.	8dd\	.	.	.	.	.	.	.	.	.	.	.	.	.
!	!	!	!	!	!LO:SIC:s=8dd'J	!	!	!	!	!	!	!	!	!	!	!	!	!
.	.	.	.	.	8dd\J	.	.	.	.	.	.	.	.	.	.	.	.	.
!	!	!	!	!	!LO:PB:g=original	!	!	!	!	!	!	!	!	!	!	!	!	!
=40	=40	=40	=40	=40	=40	=40	=40	=40	=40	=40	=40	=40	=40	=40	=40	=40	=40	=40
2A\	6\	.	2cc\	.	8dd\L	.	.	.	.	.	.	.	.	.	.	.	.	.
.	x 3	.	.	.	16ee\L	.	.	.	.	.	.	.	.	.	.	.	.	.
.	5	.	.	.	16ff#X\JJ	.	.	.	.	.	.	.	.	.	.	.	.	.
.	6\	.	.	.	8gg\L	.	.	.	.	.	.	.	.	.	.	.	.	.
.	6 3	.	.	.	8ff#\	.	.	.	.	.	.	.	.	.	.	.	.	.
4B\	5n	.	4dd\	.	8gg\	.	.	.	.	.	.	.	.	.	.	.	.	.
.	.	.	.	.	8ffn\J	.	.	.	.	.	.	.	.	.	.	.	.	.
=41	=41	=41	=41	=41	=41	=41	=41	=41	=41	=41	=41	=41	=41	=41	=41	=41	=41	=41
4c\	6 3	.	8cc\L	.	8ee\L	.	.	.	.	.	.	.	.	.	.	.	.	.
.	.	.	8ee\J	.	8aa\J	.	.	.	.	.	.	.	.	.	.	.	.	.
4d\	6 4	.	8dd\L	.	4gg\	.	.	.	.	.	.	.	.	.	.	.	.	.
.	.	.	8b\	.	.	.	.	.	.	.	.	.	.	.	.	.	.	.
4D\	5 #	.	8a\	.	4ff#X\	.	.	.	.	.	.	.	.	.	.	.	.	.
.	.	.	8cc\J	.	.	.	.	.	.	.	.	.	.	.	.	.	.	.
=42	=42	=42	=42	=42	=42	=42	=42	=42	=42	=42	=42	=42	=42	=42	=42	=42	=42	=42
4G\	.	.	4b\	.	4gg\	.	.	.	.	.	.	.	.	.	.	.	.	.
4GG/	.	.	4b\	.	4gg\	.	.	.	.	.	.	.	.	.	.	.	.	.
4r	.	.	4r	.	4r	.	.	.	.	.	.	.	.	.	.	.	.	.
=43	=43	=43	=43	=43	=43	=43	=43	=43	=43	=43	=43	=43	=43	=43	=43	=43	=43	=43
!	!	!	!	!	!	!	!	!	!	!	!	!	!LO:MO:mod=!LO&colon;TX&colon;a&colon;i&colon;t=Solo	!	!	!	!	!
!	!	!	!	!	!	!	!	!	!	!	!	!	!LO:TX:a:rj:t=Solo	!LO:MO:mod=qui-	!	!	!	!
4GG/	.	.	8B/L	.	8d/L	.	0.r	.	0.r	.	0.r	.	4dd\	Qui-	0.r	.	0.r	.
.	.	.	8c/	.	8e/	.	.	.	.	.	.	.	.	.	.	.	.	.
4r	.	.	8d/	.	8f#X/	.	.	.	.	.	.	.	4dd\	-a	.	.	.	.
.	.	.	8e/	.	8g/	.	.	.	.	.	.	.	.	.	.	.	.	.
4r	.	.	8f#X/	.	8a/	.	.	.	.	.	.	.	4dd\	re-	.	.	.	.
.	.	.	8g/J	.	8b/J	.	.	.	.	.	.	.	.	.	.	.	.	.
=44	=44	=44	=44	=44	=44	=44	=44	=44	=44	=44	=44	=44	=44	=44	=44	=44	=44	=44
4D\	#	.	8f#X/L	.	8a/L	.	.	.	.	.	.	.	2dd\	-ſpe-	.	.	.	.
.	.	.	8e/	.	8g/	.	.	.	.	.	.	.	.	.	.	.	.	.
4r	.	.	8d/	.	8f#X/	.	.	.	.	.	.	.	.	.	.	.	.	.
.	.	.	8c/	.	8e/	.	.	.	.	.	.	.	.	.	.	.	.	.
4r	.	.	8B/	.	8d/	.	.	.	.	.	.	.	8ee\L	-xit	.	.	.	.
.	.	.	8A/J	.	8c/J	.	.	.	.	.	.	.	8ff#X\J	.	.	.	.	.
=45	=45	=45	=45	=45	=45	=45	=45	=45	=45	=45	=45	=45	=45	=45	=45	=45	=45	=45
4GG/	.	.	8B/L	.	8d/L	.	.	.	.	.	.	.	4gg\	hu-	.	.	.	.
.	.	.	8c/	.	8e/	.	.	.	.	.	.	.	.	.	.	.	.	.
4r	.	.	8d/	.	8f#X/	.	.	.	.	.	.	.	4dd\	-mi-	.	.	.	.
.	.	.	8e/	.	8g/	.	.	.	.	.	.	.	.	.	.	.	.	.
4r	.	.	8f#X/	.	8a/	.	.	.	.	.	.	.	4dd\	-li-	.	.	.	.
.	.	.	8g/J	.	8b/J	.	.	.	.	.	.	.	.	.	.	.	.	.
=46	=46	=46	=46	=46	=46	=46	=46	=46	=46	=46	=46	=46	=46	=46	=46	=46	=46	=46
4D\	#	.	8f#X/L	.	8a/L	.	.	.	.	.	.	.	2dd\	-ta-	.	.	.	.
.	.	.	8e/	.	8g/	.	.	.	.	.	.	.	.	.	.	.	.	.
4r	.	.	8d/	.	8f#X/	.	.	.	.	.	.	.	.	.	.	.	.	.
.	.	.	8c/	.	8e/	.	.	.	.	.	.	.	.	.	.	.	.	.
4r	.	.	8B/	.	8d/	.	.	.	.	.	.	.	8ee\L	-tem	.	.	.	.
.	.	.	8A/J	.	8c/J	.	.	.	.	.	.	.	8ff#X\J	.	.	.	.	.
!	!	!	!LO:LB:g=original	!	!LO:LB:g=original	!	!	!	!	!	!	!	!	!	!	!	!	!
=47	=47	=47	=47	=47	=47	=47	=47	=47	=47	=47	=47	=47	=47	=47	=47	=47	=47	=47
4GG/	.	.	8B/L	.	8d/L	.	0.r	.	0.r	.	0.r	.	4gg\	hu-	0.r	.	0.r	.
.	.	.	8c/	.	8e/	.	.	.	.	.	.	.	.	.	.	.	.	.
4r	.	.	8d/	.	8f#X/	.	.	.	.	.	.	.	4dd\	-mi-	.	.	.	.
.	.	.	8e/	.	8g/	.	.	.	.	.	.	.	.	.	.	.	.	.
4r	.	.	8f#X/	.	8a/	.	.	.	.	.	.	.	4dd\	-li-	.	.	.	.
.	.	.	8g/J	.	8b/J	.	.	.	.	.	.	.	.	.	.	.	.	.
!	!	!	!	!	!	!	!	!	!	!	!	!	!LO:LB:g=original	!	!	!	!	!
=48	=48	=48	=48	=48	=48	=48	=48	=48	=48	=48	=48	=48	=48	=48	=48	=48	=48	=48
4G\	.	.	8a/L	.	8cc\L	.	.	.	.	.	.	.	4dd\	-ta-	.	.	.	.
.	.	.	8g/	.	8b\	.	.	.	.	.	.	.	.	.	.	.	.	.
4r	.	.	8a/	.	8cc\	.	.	.	.	.	.	.	4gg\	.	.	.	.	.
.	.	.	8g/	.	8b\	.	.	.	.	.	.	.	.	.	.	.	.	.
!	!	!	!	!	!	!	!	!	!	!	!	!	!LO:SIC:s=4ff	!	!	!	!	!
4r	.	.	8a/	.	8cc\	.	.	.	.	.	.	.	4ffn\	tem	.	.	.	.
.	.	.	8b/J	.	8dd\J	.	.	.	.	.	.	.	.	.	.	.	.	.
=49	=49	=49	=49	=49	=49	=49	=49	=49	=49	=49	=49	=49	=49	=49	=49	=49	=49	=49
2C/	6	.	4e/	.	8cc\L	.	.	.	.	.	.	.	4ee\	an-	.	.	.	.
.	.	.	.	.	8a\	.	.	.	.	.	.	.	.	.	.	.	.	.
.	.	.	4e/	.	8cc\	.	.	.	.	.	.	.	4cc\	-cil-	.	.	.	.
.	.	.	.	.	8a\	.	.	.	.	.	.	.	.	.	.	.	.	.
!	!	!	!	!	!	!	!	!	!	!	!	!	!	!LO:MO:mod=-lae	!	!	!	!
4C#X/	5	.	4e/	.	8b\	.	.	.	.	.	.	.	4b\	-le	.	.	.	.
.	.	.	.	.	8g\J	.	.	.	.	.	.	.	.	.	.	.	.	.
!LO:LB:g=original	!	!	!	!	!	!	!	!	!	!	!	!	!	!	!	!	!	!
=50	=50	=50	=50	=50	=50	=50	=50	=50	=50	=50	=50	=50	=50	=50	=50	=50	=50	=50
8D\L	4	.	4d/	.	4g/	.	.	.	.	.	.	.	4b\	su-	.	.	.	.
8d\	.	.	.	.	.	.	.	.	.	.	.	.	.	.	.	.	.	.
!	!	!	!	!	!	!	!	!	!	!	!	!	!	!LO:MO:mod=-ae	!	!	!	!
8c#X\	#	.	4d/	.	4f#X/	.	.	.	.	.	.	.	4a\	-e	.	.	.	.
8d\	.	.	.	.	.	.	.	.	.	.	.	.	.	.	.	.	.	.
8A\	.	.	4r	.	4r	.	.	.	.	.	.	.	4r	.	.	.	.	.
8F#X\J	.	.	.	.	.	.	.	.	.	.	.	.	.	.	.	.	.	.
=51	=51	=51	=51	=51	=51	=51	=51	=51	=51	=51	=51	=51	=51	=51	=51	=51	=51	=51
!	!	!	!	!	!	!	!	!	!	!	!	!	!	!LO:MO:mod=ec-	!	!	!	!
4D\	#	.	2.f#X/	.	4a/	.	0.r	.	0.r	.	0.r	.	4a\	Ec-	0.r	.	0.r	.
4r	.	.	.	.	4dd\	.	.	.	.	.	.	.	4dd\	.	.	.	.	.
4r	.	.	.	.	4cc\	.	.	.	.	.	.	.	4cc\	-ce	.	.	.	.
=52	=52	=52	=52	=52	=52	=52	=52	=52	=52	=52	=52	=52	=52	=52	=52	=52	=52	=52
4D\	6 4	.	2.g/	.	2.b\	.	.	.	.	.	.	.	2.b\	e-	.	.	.	.
4G\	_ _	.	.	.	.	.	.	.	.	.	.	.	.	.	.	.	.	.
4F\	x	.	.	.	.	.	.	.	.	.	.	.	.	.	.	.	.	.
=53	=53	=53	=53	=53	=53	=53	=53	=53	=53	=53	=53	=53	=53	=53	=53	=53	=53	=53
2.E\	5	.	2.g/	.	4b\	.	.	.	.	.	.	.	4b\	.	.	.	.	.
!	!	!	!	!	!LO:TX:a:t=e:mod=	!	!	!	!	!	!	!	!	!	!	!	!	!
.	6 3	.	.	.	4ee\	.	.	.	.	.	.	.	4ee\	.	.	.	.	.
!	!	!	!	!	!LO:TX:a:t=d:mod=	!	!	!	!	!	!	!	!	!	!	!	!	!
.	5	.	.	.	4dd\	.	.	.	.	.	.	.	4dd\	.	.	.	.	.
=54	=54	=54	=54	=54	=54	=54	=54	=54	=54	=54	=54	=54	=54	=54	=54	=54	=54	=54
4E\	6\ 4	.	2.a/	.	4cc#X\	.	.	.	.	.	.	.	4cc#X\	.	.	.	.	.
4A\	_ _	.	.	.	8b\L	.	.	.	.	.	.	.	8b\L	.	.	.	.	.
.	.	.	.	.	8a\	.	.	.	.	.	.	.	8a\	.	.	.	.	.
4G\	.	.	.	.	8b\	.	.	.	.	.	.	.	8b\	.	.	.	.	.
.	x	.	.	.	8cc#\J	.	.	.	.	.	.	.	8cc#\J	.	.	.	.	.
!	!	!	!	!	!	!	!	!	!	!	!	!	!LO:PB:g=original	!	!	!	!	!
=55	=55	=55	=55	=55	=55	=55	=55	=55	=55	=55	=55	=55	=55	=55	=55	=55	=55	=55
4F#X\	6 3	.	4a/	.	4dd\	.	0.r	.	0.r	.	0.r	.	4dd\	-nim	0.r	.	0.r	.
8E\L	_ 3	.	8g/L	.	4dd\	.	.	.	.	.	.	.	4dd\	ec-	.	.	.	.
8D\	x #	.	8f#X/	.	.	.	.	.	.	.	.	.	.	.	.	.	.	.
!	!	!	!	!	!LO:SIC:s=4cc	!	!	!	!	!	!	!	!LO:SIC:s=4cc	!	!	!	!	!
8E\	x 3	.	8g/	.	4ccn\	.	.	.	.	.	.	.	4ccn\	-ce	.	.	.	.
8F#\J	5n 3	.	8a/J	.	.	.	.	.	.	.	.	.	.	.	.	.	.	.
!	!	!	!	!	!LO:LB:g=original	!	!	!	!	!	!	!	!	!	!	!	!	!
=56	=56	=56	=56	=56	=56	=56	=56	=56	=56	=56	=56	=56	=56	=56	=56	=56	=56	=56
4G\	4	.	2.d/	.	2.b\	.	.	.	.	.	.	.	2.b\	e-	.	.	.	.
4G\	_	.	.	.	.	.	.	.	.	.	.	.	.	.	.	.	.	.
4Fn\	x	.	.	.	.	.	.	.	.	.	.	.	.	.	.	.	.	.
=57	=57	=57	=57	=57	=57	=57	=57	=57	=57	=57	=57	=57	=57	=57	=57	=57	=57	=57
2.E\	5	.	2.g/	.	4b\	.	.	.	.	.	.	.	4b\	.	.	.	.	.
.	6 4	.	.	.	4ee\	.	.	.	.	.	.	.	4ee\	.	.	.	.	.
.	5	.	.	.	4dd\	.	.	.	.	.	.	.	4dd\	.	.	.	.	.
=58	=58	=58	=58	=58	=58	=58	=58	=58	=58	=58	=58	=58	=58	=58	=58	=58	=58	=58
4E\	6\ 4	.	2.a/	.	4cc#X\	.	.	.	.	.	.	.	4cc#X\	.	.	.	.	.
4A\	_ _	.	.	.	8b\L	.	.	.	.	.	.	.	8b\L	.	.	.	.	.
.	.	.	.	.	8a\	.	.	.	.	.	.	.	8a\	.	.	.	.	.
4G\	.	.	.	.	8b\	.	.	.	.	.	.	.	8b\	.	.	.	.	.
.	x	.	.	.	8cc#\J	.	.	.	.	.	.	.	8cc#\J	.	.	.	.	.
!	!	!	!LO:LB:g=original	!	!	!	!	!	!	!	!	!	!	!	!	!	!	!
=59	=59	=59	=59	=59	=59	=59	=59	=59	=59	=59	=59	=59	=59	=59	=59	=59	=59	=59
4F#X\	6 3	.	4a/	.	4dd\	.	0.r	.	0.r	.	0.r	.	2dd\	.	0.r	.	0.r	.
8E\L	_ 3	.	8g/L	.	4dd\	.	.	.	.	.	.	.	.	.	.	.	.	.
8D\	_ #	.	8f#X/	.	.	.	.	.	.	.	.	.	.	.	.	.	.	.
!	!	!	!	!	!LO:SIC:s=4cc	!	!	!	!	!	!	!	!	!	!	!	!	!
8E\	_ 3	.	8g/	.	4ccn\	.	.	.	.	.	.	.	4ccn\	.	.	.	.	.
8F#\J	5n 3	.	8a/J	.	.	.	.	.	.	.	.	.	.	.	.	.	.	.
!LO:LB:g=original	!	!	!	!	!	!	!	!	!	!	!	!	!	!	!	!	!	!
=60	=60	=60	=60	=60	=60	=60	=60	=60	=60	=60	=60	=60	=60	=60	=60	=60	=60	=60
2.G\	3	.	8g/L	.	4b\	.	.	.	.	.	.	.	4b\	-nim	.	.	.	.
.	.	.	8b/	.	.	.	.	.	.	.	.	.	.	.	.	.	.	.
.	.	.	8g/	.	4dd\	.	.	.	.	.	.	.	4dd\	ec-	.	.	.	.
.	.	.	8b/	.	.	.	.	.	.	.	.	.	.	.	.	.	.	.
.	.	.	8g/	.	4dd\	.	.	.	.	.	.	.	4dd\	-ce	.	.	.	.
.	.	.	8b/J	.	.	.	.	.	.	.	.	.	.	.	.	.	.	.
=61	=61	=61	=61	=61	=61	=61	=61	=61	=61	=61	=61	=61	=61	=61	=61	=61	=61	=61
2.B\	6	.	8d/L	.	4dd\	.	.	.	.	.	.	.	4dd\	e-	.	.	.	.
.	.	.	8g/	.	.	.	.	.	.	.	.	.	.	.	.	.	.	.
.	.	.	8d/	.	4gg\	.	.	.	.	.	.	.	4gg\	.	.	.	.	.
.	5n 4	.	8g/	.	.	.	.	.	.	.	.	.	.	.	.	.	.	.
!	!	!	!	!	!LO:SIC:s=4ff	!	!	!	!	!	!	!	!LO:SIC:s=4ff	!	!	!	!	!
.	.	.	8d/	.	4ffn\	.	.	.	.	.	.	.	4ffn\	-nim	.	.	.	.
.	.	.	8g/J	.	.	.	.	.	.	.	.	.	.	.	.	.	.	.
!	!	!	!	!	!	!	!	!	!	!	!	!	!LO:LB:g=original	!	!	!	!	!
=62	=62	=62	=62	=62	=62	=62	=62	=62	=62	=62	=62	=62	=62	=62	=62	=62	=62	=62
*	*	*	*tremolo	*	*	*	*	*	*	*	*	*	*	*	*	*	*	*
2.c\	4	.	8e/L	.	4ee\	.	.	.	.	.	.	.	4ee\	ex	.	.	.	.
.	.	.	8a/	.	.	.	.	.	.	.	.	.	.	.	.	.	.	.
.	6	.	8e/	.	4aa\	.	.	.	.	.	.	.	4aa\	hoc	.	.	.	.
.	.	.	8a/	.	.	.	.	.	.	.	.	.	.	.	.	.	.	.
.	5	.	8e/	.	4gg\	.	.	.	.	.	.	.	4gg\	be-	.	.	.	.
.	.	.	8a/J	.	.	.	.	.	.	.	.	.	.	.	.	.	.	.
=63	=63	=63	=63	=63	=63	=63	=63	=63	=63	=63	=63	=63	=63	=63	=63	=63	=63	=63
2.d\	#	.	8f#X/L	.	4ff#X\	.	1.r	.	1.r	.	1.r	.	4ff#X\	-a-	0.r	.	0.r	.
.	.	.	8a/	.	.	.	.	.	.	.	.	.	.	.	.	.	.	.
.	.	.	8f#/	.	8ee\L	.	.	.	.	.	.	.	8ee\L	.	.	.	.	.
.	.	.	8a/	.	8dd\	.	.	.	.	.	.	.	8dd\	.	.	.	.	.
.	.	.	8f#/	.	8ee\	.	.	.	.	.	.	.	8ee\	.	.	.	.	.
.	.	.	8a/J	.	8ff#\J	.	.	.	.	.	.	.	8ff#\J	.	.	.	.	.
*	*	*	*Xtremolo	*	*	*	*	*	*	*	*	*	*	*	*	*	*	*
=64	=64	=64	=64	=64	=64	=64	=64	=64	=64	=64	=64	=64	=64	=64	=64	=64	=64	=64
4G\	.	.	4b/ 4d/	.	8gg\L	.	.	.	.	.	.	.	8gg\	-tam	.	.	.	.
.	.	.	.	.	16bb\L	.	.	.	.	.	.	.	16bb\LL	me	.	.	.	.
.	.	.	.	.	16aa\JJ	.	.	.	.	.	.	.	16aa\JJ	.	.	.	.	.
4r	.	.	4r	.	8gg\L	.	.	.	.	.	.	.	8gg\L	di-	.	.	.	.
.	.	.	.	.	8ff\	.	.	.	.	.	.	.	8ff\J	.	.	.	.	.
4r	.	.	4r	.	8ee\	.	.	.	.	.	.	.	8ee\L	-cent	.	.	.	.
.	.	.	.	.	8dd\J	.	.	.	.	.	.	.	8dd\J	.	.	.	.	.
!	!	!	!	!	!LO:LB:g=original	!	!LO:LB:g=original	!	!LO:PB:g=original	!	!	!	!	!	!	!	!	!
=65	=65	=65	=65	=65	=65	=65	=65	=65	=65	=65	=65	=65	=65	=65	=65	=65	=65	=65
!!LO:TX:a:t= :mod=Tutti
!LO:TX:a:t=tutti:mod=	!	!	!	!	!	!	!	!	!	!	!	!	!	!	!	!	!	!
8r	.	.	2.a/	.	2.cc#X\	.	8r	.	2.e\	om-	2.a\	om-	2.cc#X\	om-	.	.	.	.
8G\L	7# 2	.	.	.	.	.	8G\L	om-	.	.	.	.	.	.	.	.	.	.
8A\	_ _	.	.	.	.	.	8A\	.	.	.	.	.	.	.	.	.	.	.
8G\	.	.	.	.	.	.	8G\	.	.	.	.	.	.	.	.	.	.	.
!LO:SIC:s=8F	!	!	!	!	!	!	!LO:SIC:s=8F	!	!	!	!	!	!	!	!	!	!	!
8Fn\	_ x	.	.	.	.	.	8Fn\	.	.	.	.	.	.	.	.	.	.	.
8E\J	x	.	.	.	.	.	8E\J	.	.	.	.	.	.	.	.	.	.	.
=66	=66	=66	=66	=66	=66	=66	=66	=66	=66	=66	=66	=66	=66	=66	=66	=66	=66	=66
!	!	!	!LO:SIC:s=2.f	!	!	!	!	!LO:MO:null:mod=-[nes	!	!	!	!	!	!	!	!	!	!
2.D\	3	.	2.fn/	.	8dd\L	.	2.D\	.	2.f\	-neſ	2.a\	-nes	8dd\	-nes	.	.	.	.
.	.	.	.	.	16dd\L	.	.	.	.	.	.	.	16dd\LL	me-	.	.	.	.
.	.	.	.	.	16ee\JJ	.	.	.	.	.	.	.	16ee\JJ	.	.	.	.	.
!	!	!	!	!	!	!	!	!	!	!	!	!	!LO:SIC:s=8ffL	!	!	!	!	!
.	.	.	.	.	8ff\L	.	.	.	.	.	.	.	8ffn\L	-di-	.	.	.	.
.	.	.	.	.	8ee\J	.	.	.	.	.	.	.	8ee\J	.	.	.	.	.
.	.	.	.	.	8dd\L	.	.	.	.	.	.	.	8dd\L	-cent	.	.	.	.
.	.	.	.	.	8ccn\J	.	.	.	.	.	.	.	8ccn\J	.	.	.	.	.
!	!	!	!	!	!	!	!	!	!	!	!	!	!LO:LB:g=original	!	!	!	!	!
=67	=67	=67	=67	=67	=67	=67	=67	=67	=67	=67	=67	=67	=67	=67	=67	=67	=67	=67
!	!	!	!	!	!	!	!	!LO:MO:null:mod=om-	!	!	!	!	!	!	!	!	!LO:TX:a:t=Verte Subitto.:mod=	!
8D\L	6 4	.	2.g/	.	2.b\	.	8D\L	.	2.d\	om-	2.g\	om-	2.b\	om-	2.r	.	2.r	.
16E\L	.	.	.	.	.	.	16E\L	.	.	.	.	.	.	.	.	.	.	.
16F\JJ	_ _	.	.	.	.	.	16F\JJ	.	.	.	.	.	.	.	.	.	.	.
8G\L	.	.	.	.	.	.	8G\L	.	.	.	.	.	.	.	.	.	.	.
8F\	.	.	.	.	.	.	8F\	.	.	.	.	.	.	.	.	.	.	.
8E\	x	.	.	.	.	.	8E\	.	.	.	.	.	.	.	.	.	.	.
8D\J	.	.	.	.	.	.	8D\J	.	.	.	.	.	.	.	.	.	.	.
!	!	!	!	!	!	!	!	!	!	!	!	!	!	!	!	!	!LO:PB:g=original	!
=68	=68	=68	=68	=68	=68	=68	=68	=68	=68	=68	=68	=68	=68	=68	=68	=68	=68	=68
!	!	!	!	!	!	!	!	!LO:MO:null:mod=-nes	!	!	!	!	!	!	!	!	!	!
2.C/	3	.	2.e/	.	8cc\L	.	2.C/	.	2.e\	-nes	2.g\	-nes	8cc\	-nes	2.cc\	.	2.ee\	.
.	.	.	.	.	16cc\L	.	.	.	.	.	.	.	16cc\LL	me-	.	.	.	.
.	.	.	.	.	16dd\JJ	.	.	.	.	.	.	.	16dd\JJ	.	.	.	.	.
.	.	.	.	.	8ee\L	.	.	.	.	.	.	.	8ee\L	-di-	.	.	.	.
.	.	.	.	.	8dd\	.	.	.	.	.	.	.	8dd\J	.	.	.	.	.
.	.	.	.	.	8cc\	.	.	.	.	.	.	.	8cc\L	-cent	.	.	.	.
.	.	.	.	.	8b-X\J	.	.	.	.	.	.	.	8b-X\J	.	.	.	.	.
!	!	!	!LO:LB:g=original	!	!	!	!	!	!	!	!LO:LB:g=original	!	!	!	!	!	!	!
=69	=69	=69	=69	=69	=69	=69	=69	=69	=69	=69	=69	=69	=69	=69	=69	=69	=69	=69
!	!	!	!	!	!	!	!	!LO:MO:null:mod=om]-	!	!	!	!LO:MO:mod=om-	!	!	!	!	!	!
2.F\	6	.	2.a/	.	8a\L	.	2.F\	.	2.f\	om-	2.a\	o-	8a\L	om-	2.dd\	.	2.ff\	.
.	.	.	.	.	8cc#X\	.	.	.	.	.	.	.	8cc#X\	.	.	.	.	.
.	.	.	.	.	8dd\	.	.	.	.	.	.	.	8dd\	.	.	.	.	.
.	.	.	.	.	8ee\	.	.	.	.	.	.	.	8ee\	.	.	.	.	.
.	.	.	.	.	8dd\	.	.	.	.	.	.	.	8dd\	.	.	.	.	.
.	.	.	.	.	8ccn\J	.	.	.	.	.	.	.	8ccn\J	.	.	.	.	.
=70	=70	=70	=70	=70	=70	=70	=70	=70	=70	=70	=70	=70	=70	=70	=70	=70	=70	=70
.	.	.	.	.	8qqcc/	.	.	.	.	.	.	.	.	.	.	.	.	.
2.G\	3	.	2.f/	.	4b/	.	2.G\	.	2.d\	.	2.f\	.	4b\	.	2.g/	.	2.dd\	.
.	.	.	.	.	8a/L	.	.	.	.	.	.	.	8a\L	.	.	.	.	.
.	.	.	.	.	8g/	.	.	.	.	.	.	.	8g\	.	.	.	.	.
.	.	.	.	.	8a/	.	.	.	.	.	.	.	8a\	.	.	.	.	.
.	.	.	.	.	8b/J	.	.	.	.	.	.	.	8b\J	.	.	.	.	.
=71	=71	=71	=71	=71	=71	=71	=71	=71	=71	=71	=71	=71	=71	=71	=71	=71	=71	=71
8C/L	.	.	8e/L	.	4cc\	.	4C/	-nes	4c\	-nes	4e\	-nes	4cc\	-nes	2.c/	.	2.cc\	.
8C/	.	.	8cc/ 8e/	.	.	.	.	.	.	.	.	.	.	.	.	.	.	.
8C/	.	.	8cc/ 8e/	.	4ee\	.	4c\	di-	4c\	di-	4g\	di-	4ee\	di-	.	.	.	.
8C/	.	.	8cc/ 8e/	.	.	.	.	.	.	.	.	.	.	.	.	.	.	.
!	!	!	!	!	!	!	!	!	!	!	!LO:SIC:s=4g	!LO:MO:mod=-cent	!	!	!	!	!	!
8C/	.	.	8cc/ 8e/	.	4gg\	.	4c\	-cent	4c\	-cent	4f\	-ce	4ee\	-cent	.	.	.	.
8C/J	.	.	8cc/J 8e/	.	.	.	.	.	.	.	.	.	.	.	.	.	.	.
!LO:LB:g=original	!	!	!	!	!	!	!LO:LB:g=original	!	!	!	!	!	!LO:LB:g=original	!	!	!	!	!
=72	=72	=72	=72	=72	=72	=72	=72	=72	=72	=72	=72	=72	=72	=72	=72	=72	=72	=72
*	*	*	*^	*	*	*	*	*	*	*	*	*	*	*	*	*	*	*
*tremolo	*	*	*tremolo	*tremolo	*	*	*	*	*	*	*	*	*	*	*	*	*	*	*
8C/L	6 4	.	8a/L	8f\L	.	4ff\	.	2c\	om-	2c\	om-	2a\	om-	2ff\	om-	4c/	.	4cc\	.
8C/	_ _	.	8a/	8f\	.	.	.	.	.	.	.	.	.	.	.	.	.	.	.
8C/	.	.	8a/	8f\	.	8aa\	.	.	.	.	.	.	.	.	.	4c/	.	4cc\	.
8C/	.	.	8a/	8f\	.	8r	.	.	.	.	.	.	.	.	.	.	.	.	.
.	.	.	.	.	.	8qqgg/	.	.	.	.	.	.	.	.	.	.	.	.	.
8C/	.	.	8a/	8f\	.	8ff\L	.	4c\	-nes	4c\	-nes	4a\	-nes	4ff\	-nes	4c/	.	4cc\	.
8C/J	.	.	8a/J	8f\J	.	16ee\L	.	.	.	.	.	.	.	.	.	.	.	.	.
.	.	.	.	.	.	16ff\JJ	.	.	.	.	.	.	.	.	.	.	.	.	.
!LO:MO:mod=*null:null	!	!	!	!	!	!	!	!	!	!	!	!	!	!	!	!	!	!	!
*Xtremolo	*	*	*Xtremolo	*	*	*	*	*	*	*	*	*	*	*	*	*	*	*	*
*	*	*	*v	*v	*	*	*	*	*	*	*	*	*	*	*	*	*	*	*
!	!	!	!	!	!LO:LB:g=original	!	!	!	!	!	!	!	!	!	!	!	!	!
=73	=73	=73	=73	=73	=73	=73	=73	=73	=73	=73	=73	=73	=73	=73	=73	=73	=73	=73
8C/L	7 2	.	8b/L 8d/	.	4dd\	.	4c\	me	4c\	me	4b\	me	4dd\	me	2.c/	.	2.cc\	.
8C/	.	.	8b/ 8d/	.	.	.	.	.	.	.	.	.	.	.	.	.	.	.
8C/	.	.	8b/ 8d/	.	4gg\	.	4c\	di-	4c\	di-	4b\	di-	4dd\	di-	.	.	.	.
8C/	.	.	8b/ 8d/	.	.	.	.	.	.	.	.	.	.	.	.	.	.	.
8C/	.	.	8b/ 8d/	.	4ff\	.	4c\	-cent	4c\	-cent	4b\	-cent	4dd\	-cent	.	.	.	.
8C/J	.	.	8b/J 8d/	.	.	.	.	.	.	.	.	.	.	.	.	.	.	.
!	!	!	!	!	!	!	!	!	!LO:LB:g=original	!	!	!	!	!	!	!	!	!
=74	=74	=74	=74	=74	=74	=74	=74	=74	=74	=74	=74	=74	=74	=74	=74	=74	=74	=74
!LO:MO:mod=*null:null	!	!	!	!	!	!	!	!	!	!	!	!	!	!	!	!	!	!
*tremolo	*	*	*	*	*	*	*	*	*	*	*	*	*	*	*	*	*	*
!	!	!	!LO:SIC:s=8ccL 8e	!	!	!	!	!	!	!	!	!	!	!	!	!	!	!
8C/L	x 3	.	8cc/L 8d/	.	4ee\	.	2c\	om-	2c\	om-	2cc\	om-	2ee\	om-	4c/	.	4cc\	.
!	!	!	!LO:SIC:s=8cc 8e	!	!	!	!	!	!	!	!	!	!	!	!	!	!	!
8C/	.	.	8cc/ 8d/	.	.	.	.	.	.	.	.	.	.	.	.	.	.	.
!	!	!	!LO:SIC:s=8cc 8e	!	!	!	!	!	!	!	!	!	!	!	!	!	!	!
8C/	.	.	8cc/ 8d/	.	8gg\	.	.	.	.	.	.	.	.	.	4c/	.	4cc\	.
!	!	!	!LO:SIC:s=8cc 8e	!	!	!	!	!	!	!	!	!	!	!	!	!	!	!
8C/	.	.	8cc/ 8d/	.	8r	.	.	.	.	.	.	.	.	.	.	.	.	.
.	.	.	.	.	8qqff/	.	.	.	.	.	.	.	.	.	.	.	.	.
!	!	!	!LO:SIC:s=8cc 8e	!	!	!	!	!	!	!	!	!	!	!	!	!	!	!
8C/	.	.	8cc/ 8d/	.	8ee\L	.	4c\	-nes	4c\	-nes	4g\	-nes	4ee\	-nes	4c/	.	4cc\	.
!	!	!	!LO:SIC:s=8ccJ 8e	!	!	!	!	!	!	!	!	!	!	!	!	!	!	!
8C/J	.	.	8cc/J 8d/	.	16dd\L	.	.	.	.	.	.	.	.	.	.	.	.	.
.	.	.	.	.	16ee\JJ	.	.	.	.	.	.	.	.	.	.	.	.	.
=75	=75	=75	=75	=75	=75	=75	=75	=75	=75	=75	=75	=75	=75	=75	=75	=75	=75	=75
!	!	!	!	!	!	!	!	!	!	!	!	!	!	!LO:MO:mod=ge-	!	!	!	!
8BB/L	6 5	.	8g/L	.	4gg\	.	2B\	ge-	2d\	ge-	2g\	ge-	2ff\	Ge-	2.g/	.	2.dd\	.
8BB/	.	.	8g/	.	.	.	.	.	.	.	.	.	.	.	.	.	.	.
8BB/	.	.	8g/	.	4ff\	.	.	.	.	.	.	.	.	.	.	.	.	.
8BB/	.	.	8g/	.	.	.	.	.	.	.	.	.	.	.	.	.	.	.
8BB/	.	.	8g/	.	4dd\	.	4B\	-ne-	4d\	-ne-	4g\	-ne-	4ff\	-ne-	.	.	.	.
8BB/J	.	.	8g/J	.	.	.	.	.	.	.	.	.	.	.	.	.	.	.
!	!	!	!	!	!	!	!	!	!	!	!LO:LB:g=original	!	!	!	!LO:LB:g=original	!	!	!
=76	=76	=76	=76	=76	=76	=76	=76	=76	=76	=76	=76	=76	=76	=76	=76	=76	=76	=76
8C/L	.	.	8g/L	.	4ee\	.	2c\	-ra-	2c\	-ra-	2g\	-ra-	2ee\	-ra-	2.cc\	.	2.ee\	.
8C/	.	.	8g/	.	.	.	.	.	.	.	.	.	.	.	.	.	.	.
8C/	.	.	8g/	.	4gg\	.	.	.	.	.	.	.	.	.	.	.	.	.
8C/	.	.	8g/	.	.	.	.	.	.	.	.	.	.	.	.	.	.	.
8C/	.	.	8g/	.	4ccc\	.	4c\	-ti-	4c\	-ti-	4g\	-ti-	4ee\	-ti-	.	.	.	.
8C/J	.	.	8g/J	.	.	.	.	.	.	.	.	.	.	.	.	.	.	.
*Xtremolo	*	*	*Xtremolo	*	*	*	*	*	*	*	*	*	*	*	*	*	*	*
=77	=77	=77	=77	=77	=77	=77	=77	=77	=77	=77	=77	=77	=77	=77	=77	=77	=77	=77
!LO:TX:a:t=P:problem=mixed beam	!	!	!	!	!	!	!	!	!	!	!	!	!	!	!	!	!	!
8F\L	6	.	8a\L	.	8aa\L	.	4F\	-o-	4d\	-o-	4a\	-o-	4ff\	-o-	4dd\	.	4ff\	.
8F\	.	.	8dd\J	.	16gg\L	.	.	.	.	.	.	.	.	.	.	.	.	.
.	.	.	.	.	16ff\JJ	.	.	.	.	.	.	.	.	.	.	.	.	.
8G\	6 4	.	4cc\	.	4ee\	.	4G\	.	4c\	.	2g\	.	4ee\	.	4cc\	.	4ee\	.
8G\	.	.	.	.	.	.	.	.	.	.	.	.	.	.	.	.	.	.
8GG/	5 3	.	4b\	.	4dd\	.	4GG/	.	4B\	.	.	.	4dd\	.	4g/	.	4dd\	.
8GG/J	.	.	.	.	.	.	.	.	.	.	.	.	.	.	.	.	.	.
!	!	!	!	!	!	!	!LO:LB:g=original	!	!	!	!	!	!LO:LB:g=original	!	!	!	!	!
=78	=78	=78	=78	=78	=78	=78	=78	=78	=78	=78	=78	=78	=78	=78	=78	=78	=78	=78
!LO:MO:mod=*tremolo	!	!	!	!	!	!	!	!	!	!	!	!	!	!	!	!	!	!
*null	*	*	*	*	*	*	*	*	*	*	*	*	*	*	*	*	*	*
8C/L	.	.	4cc\	.	4ee\	.	4C/	-nes	4c\	-nes	4g\	-nes	4ee\	-nes	4e/	.	4cc\	.
8C/	.	.	.	.	.	.	.	.	.	.	.	.	.	.	.	.	.	.
!	!	!	!	!	!	!	!	!	!	!LO:MO:mod=ge-	!	!	!	!	!	!	!	!
8C/	.	.	4ee\	.	4ccc\	.	4c\	ge-	4g\	di-	4cc\	ge-	4ee\	ge-	8c/L	.	8cc\L	.
8C/	.	.	.	.	.	.	.	.	.	.	.	.	.	.	8c/	.	8cc\	.
!	!	!	!	!	!	!	!	!	!	!LO:MO:mod=-ne-	!	!	!	!	!	!	!	!
8C/	7 5	.	4gg\	.	4bb-X\	.	4c\	-ne-	4e\	-cent	4b-X\	-ne-	4gg\	-ne-	8c/	.	8cc\	.
8C/J	6	.	.	.	.	.	.	.	.	.	.	.	.	.	8c/J	.	8cc\J	.
!	!	!	!	!	!	!	!	!	!	!	!	!	!	!	!	!	!LO:LB:g=original	!
=79	=79	=79	=79	=79	=79	=79	=79	=79	=79	=79	=79	=79	=79	=79	=79	=79	=79	=79
!	!	!	!	!	!	!	!	!	!	!LO:MO:mod=-ra-	!	!	!	!	!	!	!	!
8C/L	6 4	.	4ff\	.	4aa\	.	2c\	-ra-	4a\	om-	4a\	-ra-	4ff\	-ra-	4c/	.	4cc\	.
8C/	_ _	.	.	.	.	.	.	.	.	.	.	.	.	.	.	.	.	.
.	7	.	.	.	.	.	.	.	.	.	.	.	.	.	.	.	.	.
8C/	6 5 3	.	4ee\	.	4bb-X\	.	.	.	4g\	.	4b-X\	.	4ee\	.	4c/	.	4cc\	.
8C/	_ _ _	.	.	.	.	.	.	.	.	.	.	.	.	.	.	.	.	.
!	!	!	!	!	!	!	!	!	!	!LO:MO:mod=.	!	!	!	!	!	!	!	!
8C/	7n 4 2	.	4dd\	.	4bbn\	.	4c\	-ti-	4f\	-nes	4bn\	.	4dd\	.	4c/	.	4cc\	.
8C/J	_ _ _	.	.	.	.	.	.	.	.	.	.	.	.	.	.	.	.	.
=80	=80	=80	=80	=80	=80	=80	=80	=80	=80	=80	=80	=80	=80	=80	=80	=80	=80	=80
!	!	!	!	!	!	!	!	!	!	!LO:MO:mod=.	!	!	!	!	!	!	!	!
8C/L	8 3	.	2ee\	.	2ccc\	.	2.c\	-o-	4g\	ge-	2cc\	.	2ee\	.	4c/	.	4cc\	.
8C/	_ _	.	.	.	.	.	.	.	.	.	.	.	.	.	.	.	.	.
!	!	!	!	!	!	!	!	!	!	!LO:MO:mod=-ti-	!	!	!	!	!	!	!	!
8C/	.	.	.	.	.	.	.	.	4g\	-ne-	.	.	.	.	8c/L	.	8cc\L	.
8C/	.	.	.	.	.	.	.	.	.	.	.	.	.	.	8c/	.	8cc\	.
!	!	!	!	!	!	!	!	!	!	!LO:MO:mod=.	!	!	!	!LO:MO:mod=-ti-	!	!	!	!
8C/	7 5	.	4gg\	.	4bb-X\	.	.	.	4e\	-ra-	4b-X\	-ti-	4gg\	-tio-	8c/	.	8cc\	.
!LO:TX:b:t=Verte Subitto:mod=	!	!	!	!	!	!	!	!	!	!	!	!	!	!	!	!	!	!
8C/J	6 _	.	.	.	.	.	.	.	.	.	.	.	.	.	8c/J	.	8cc\J	.
!LO:PB:g=original	!	!	!LO:LB:g=original	!	!	!	!	!	!LO:LB:g=original	!	!	!	!	!	!	!	!	!
=81	=81	=81	=81	=81	=81	=81	=81	=81	=81	=81	=81	=81	=81	=81	=81	=81	=81	=81
!	!	!	!	!	!	!	!	!	!	!LO:MO:mod=-o-	!	!	!	!LO:MO:null:mod=-o-	!	!	!	!
8C/L	6 4	.	4ff\	.	4aa\	.	2.c\	.	4a\	-ti-	4a\	-o-	4ff\	.	4c/	.	4cc\	.
8C/	.	.	.	.	.	.	.	.	.	.	.	.	.	.	.	.	.	.
!	!	!	!	!	!	!	!	!	!	!LO:MO:mod=.	!	!	!	!	!	!	!	!
8C/	7 5 3	.	4ee\	.	4bb-X\	.	.	.	4g\	-o-	4b-X\	.	4ee\	.	4c/	.	4cc\	.
8C/	.	.	.	.	.	.	.	.	.	.	.	.	.	.	.	.	.	.
8C/	6 4 2	.	4dd\	.	4bbn\	.	.	.	4f\	.	4bn\	.	4dd\	.	4c/	.	4cc\	.
8C/J	7n	.	.	.	.	.	.	.	.	.	.	.	.	.	.	.	.	.
!LO:MO:mod=*Xtremolo	!	!	!	!	!	!	!	!	!	!	!	!	!	!	!	!	!	!
*null	*	*	*	*	*	*	*	*	*	*	*	*	*	*	*	*	*	*
!	!	!	!	!	!	!	!	!	!	!	!LO:LB:g=original	!	!	!	!	!	!	!
=82	=82	=82	=82	=82	=82	=82	=82	=82	=82	=82	=82	=82	=82	=82	=82	=82	=82	=82
!LO:TX:a:t=P:problem=mixed beam	!	!	!	!	!	!	!	!LO:MO:mod=-nes.	!	!LO:MO:mod=-nes.	!	!LO:MO:mod=-nes.	!	!LO:MO:mod=-nes.	!	!	!	!
8C/L	8 3	.	4ee\	.	4ccc\	.	4c\	-neſ-	4e\	-neſ	4cc\	-nes	4ee\	-nes	4c/	.	4cc\	.
8c\	.	.	.	.	.	.	.	.	.	.	.	.	.	.	.	.	.	.
8B\	_ _	.	4cc/ 4e/ 4G/	.	4ccc\ 4ee\ 4g\	.	4r	.	4r	.	4r	.	4r	.	4c/	.	4cc\	.
8c\	.	.	.	.	.	.	.	.	.	.	.	.	.	.	.	.	.	.
8G\	x	.	4cc/ 4e/ 4G/	.	4ccc\ 4ee\ 4g\	.	4r	.	4r	.	4r	.	4r	.	4c/	.	4cc\	.
8E\J	.	.	.	.	.	.	.	.	.	.	.	.	.	.	.	.	.	.
=83	=83	=83	=83	=83	=83	=83	=83	=83	=83	=83	=83	=83	=83	=83	=83	=83	=83	=83
!LO:MO:mod=2C	!	!	!	!	!LO:SIC:s=2ccc 2ee 2g	!	!	!	!	!	!	!	!	!	!LO:MO:mod=2c	!	!LO:MO:mod=2cc	!
4C/	.	.	2cc/ 2e/ 2G/	.	2aa\ 2ee\ 2g\	.	2.r	.	2.r	.	2.r	.	2.r	.	4c/	.	4cc\	.
!LO:MO:mod=.	!	!	!	!	!	!	!	!	!	!	!	!	!	!	!LO:MO:mod=.	!	!LO:MO:mod=.	!
4r	.	.	.	.	.	.	.	.	.	.	.	.	.	.	4r	.	4r	.
4r	.	.	4r	.	4r	.	.	.	.	.	.	.	.	.	4r	.	4r	.
==	==	==	==	==	==	==	==	==	==	==	==	==	==	==	==	==	==	==
*-	*-	*-	*-	*-	*-	*-	*-	*-	*-	*-	*-	*-	*-	*-	*-	*-	*-	*-
!!!system-decoration: [(g1)][(g2)][(g3)]<s9>
!!LO:MO:ori
!!!RDF**dynam: f = for
!!LO:MO:end
!!!filter-modern: shed -k -e "s/([^a-gA-Gn#X-])[<>]/$1/g" | shed -X dynam -e "s/:a/:A/LX" | shed -e "s/TX(.*):t=P:/tx$1:t=P:/LG" | shed -e "s/:rj/:RJ/L" | sic -sq | modori -m | autostem -r | tie -s | humtr -p | shed -e "s/yy//"
!!!ENC: Berenika Jozajtis
!!!END: 2021-11-27
!!!ENC: Leszek Kubiak
!!!END: 2021-12-11
!!!ENC-modern: Andrzej Kubiczek
!!!END-modern: 2022-07-27
!!!YEC: Copyright 2022 Narodowy Instytut Fryderyka Chopina (https://polishscores.org)
!!!YEM: License CC-BY-4.0 (https://creativecommons.org/licenses/by/4.0)
